; generated by PrusaSlicer 2.5.0+win64 on 2023-02-26 at 22:08:44 UTC


;
;
; 

; external perimeters extrusion width = 0.45mm
; perimeters extrusion width = 0.45mm
; infill extrusion width = 0.45mm
; solid infill extrusion width = 0.45mm
; top infill extrusion width = 0.40mm
; first layer extrusion width = 0.42mm

M73 P0 R8
M73 Q0 S8
M201 X1000 Y1000 Z200 E5000 ; sets maximum accelerations, mm/sec^2
M203 X200 Y200 Z12 E120 ; sets maximum feedrates, mm / sec
M204 P1250 R1250 T1250 ; sets acceleration (P, T) and retract acceleration (R), mm/sec^2
M205 X8.00 Y8.00 Z0.40 E4.50 ; sets the jerk limits, mm/sec
M205 S0 T0 ; sets the minimum extruding and travel feed rate, mm/sec
M107
;TYPE:Custom
M862.3 P "MK3S" ; printer model check
M862.1 P0.4 ; nozzle diameter check
M115 U3.11.0 ; tell printer latest fw version
G90 ; use absolute coordinates
M83 ; extruder relative mode
M104 S215 ; set extruder temp
M140 S60 ; set bed temp
M190 S60 ; wait for bed temp
M109 S215 ; wait for extruder temp
G28 W ; home all without mesh bed level
G80 ; mesh bed leveling

G1 Z0.2 F720
G1 Y-3 F1000 ; go outside print area
G92 E0
G1 X60 E9 F1000 ; intro line
G1 X100 E12.5 F1000 ; intro line

G92 E0
M221 S95

; Don't change E values below. Excessive value can damage the printer.

M907 E538 ; set extruder motor current
G21 ; set units to millimeters
G90 ; use absolute coordinates
M83 ; use relative distances for extrusion
M900 K0.05 ; Filament gcode LA 1.5
M900 K30 ; Filament gcode LA 1.0
M107
;LAYER_CHANGE
;Z:0.2
;HEIGHT:0.2
;BEFORE_LAYER_CHANGE
G92 E0.0
;0.2


G1 E-.8 F2100
M73 P1 R8
M73 Q1 S8
G1 Z.4 F720
;AFTER_LAYER_CHANGE
;0.2
G1 X116.337 Y97.555 F10800
G1 Z.2 F720
G1 E.8 F2100
M204 S800
;TYPE:Skirt/Brim
;WIDTH:0.42
G1 F1200
G1 X117.419 Y96.417 E.04923
G1 X119.075 Y95.944 E.054
G1 X130.925 Y95.944 E.37155
G1 X132.445 Y96.337 E.04923
G1 X133.583 Y97.419 E.04923
G1 X134.056 Y99.075 E.054
G1 X134.056 Y110.925 E.37155
G1 X133.663 Y112.445 E.04923
G1 X132.581 Y113.583 E.04923
G1 X130.925 Y114.056 E.054
G1 X119.075 Y114.056 E.37155
G1 X117.555 Y113.663 E.04923
M73 Q2 S8
G1 X116.417 Y112.581 E.04923
G1 X115.944 Y110.925 E.054
G1 X115.944 Y99.075 E.37155
M73 P2 R8
G1 X116.322 Y97.613 E.04735
M204 S1000
G1 X116.697 Y97.717 F10800
M204 S800
G1 F1200
G1 X116.714 Y97.658 E.00193
G1 X117.78 Y96.644 E.04612
G1 X119.075 Y96.321 E.04186
G1 X130.925 Y96.321 E.37155
G1 X132.342 Y96.714 E.04612
M73 P2 R7
G1 X133.356 Y97.78 E.04612
G1 X133.679 Y99.075 E.04186
G1 X133.679 Y110.925 E.37155
G1 X133.286 Y112.342 E.04612
G1 X132.22 Y113.356 E.04612
G1 X130.925 Y113.679 E.04186
G1 X119.075 Y113.679 E.37155
G1 X117.658 Y113.286 E.04612
M73 Q2 S7
G1 X116.644 Y112.22 E.04612
G1 X116.321 Y110.925 E.04186
G1 X116.321 Y99.075 E.37155
G1 X116.681 Y97.775 E.0423
M204 S1000
G1 X117.054 Y97.887 F10800
M204 S800
G1 F1200
G1 X117.09 Y97.768 E.00388
G1 X118.135 Y96.892 E.04278
G1 X119.075 Y96.698 E.03008
G1 X130.925 Y96.698 E.37155
G1 X132.232 Y97.09 E.04278
M73 Q3 S7
G1 X133.108 Y98.135 E.04278
G1 X133.302 Y99.075 E.03008
G1 X133.302 Y110.925 E.37155
G1 X132.91 Y112.232 E.04278
M73 P3 R7
G1 X131.865 Y113.108 E.04278
G1 X130.925 Y113.302 E.03008
G1 X119.075 Y113.302 E.37155
G1 X117.768 Y112.91 E.04278
G1 X116.892 Y111.865 E.04278
G1 X116.698 Y110.925 E.03008
G1 X116.698 Y99.075 E.37155
G1 X117.037 Y97.944 E.03702
M204 S1000
; printing object Body1.stl id:0 copy 0
;WIPE_START
G1 F8640
G1 X117.09 Y97.768 E-.04244
G1 X118.135 Y96.892 E-.31505
G1 X119.075 Y96.698 E-.22155
G1 X119.859 Y96.698 E-.18096
;WIPE_END
G1 E-.04 F2100
G1 Z.6 F720
G1 X119.498 Y99.498 F10800
G1 Z.2 F720
G1 E.8 F2100
M204 S800
;TYPE:External perimeter
;WIDTH:0.47199
G1 F1200
G1 X119.752 Y99.477 E.00909
;WIDTH:0.442503
G1 X120.006 Y99.456 E.00847
;WIDTH:0.419999
G1 X129.93 Y99.448 E.31116
;WIDTH:0.418117
G1 X129.996 Y99.45 E.00205
;WIDTH:0.445202
G1 X130.249 Y99.473 E.00848
;WIDTH:0.47336
G1 X130.501 Y99.496 E.00908
G1 X130.523 Y99.751 E.00916
;WIDTH:0.443187
G1 X130.544 Y100.006 E.00851
;WIDTH:0.42
G1 X130.555 Y100.561 E.01741
G1 X130.544 Y110.003 E.29605
;WIDTH:0.442471
G1 X130.523 Y110.253 E.00831
;WIDTH:0.471989
G1 X130.502 Y110.502 E.00893
G1 X130.248 Y110.523 E.00909
;WIDTH:0.442502
G1 X129.994 Y110.544 E.00847
;WIDTH:0.419999
G1 X119.997 Y110.544 E.31345
;WIDTH:0.442473
G1 X119.747 Y110.523 E.00831
;WIDTH:0.47199
G1 X119.498 Y110.502 E.00893
G1 X119.477 Y110.248 E.00909
;WIDTH:0.442503
G1 X119.456 Y109.994 E.00847
;WIDTH:0.42
G1 X119.456 Y99.997 E.31345
;WIDTH:0.442473
G1 X119.477 Y99.747 E.00831
;WIDTH:0.47199
M73 Q4 S7
G1 X119.493 Y99.558 E.00679
M204 S1000
;WIPE_START
G1 F8640
G1 X119.752 Y99.477 E-.06267
G1 X120.006 Y99.456 E-.05885
G1 X122.771 Y99.454 E-.63848
;WIPE_END
G1 E-.04 F2100
M73 P4 R7
G1 Z.6 F720
G1 X130.174 Y100.011 F10800
G1 Z.2 F720
G1 E.8 F2100
M204 S800
;WIDTH:0.42
G1 F1200
G1 X130.174 Y109.989 E.31286
;WIDTH:0.442502
G1 X130.158 Y110.065 E.00258
;WIDTH:0.471989
G1 X130.141 Y110.141 E.00277
G1 X130.067 Y110.157 E.00269
;WIDTH:0.442472
G1 X129.994 Y110.174 E.0025
;WIDTH:0.419998
G1 X120.011 Y110.174 E.31301
;WIDTH:0.442502
G1 X119.935 Y110.158 E.00258
;WIDTH:0.47199
G1 X119.859 Y110.141 E.00277
G1 X119.842 Y110.065 E.00277
;WIDTH:0.442503
G1 X119.826 Y109.989 E.00258
;WIDTH:0.42
G1 X119.826 Y100.011 E.31286
;WIDTH:0.442503
G1 X119.842 Y99.935 E.00258
;WIDTH:0.47199
G1 X119.859 Y99.859 E.00277
G1 X119.935 Y99.842 E.00277
;WIDTH:0.442503
G1 X120.011 Y99.826 E.00258
;WIDTH:0.419999
G1 X129.93 Y99.823 E.31101
;WIDTH:0.445739
G1 X130.035 Y99.84 E.00356
;WIDTH:0.47336
G1 X130.14 Y99.857 E.00381
G1 X130.157 Y99.934 E.00281
;WIDTH:0.443187
G1 X130.161 Y99.952 E.00062
M204 S1000
;WIPE_START
G1 F8640
G1 X130.165 Y103.244 E-.76
;WIPE_END
G1 E-.04 F2100
G1 Z.6 F720
G1 X126.809 Y106.159 F10800
G1 Z.2 F720
G1 E.8 F2100
M204 S800
;WIDTH:0.406848
G1 F1200
G1 X126.767 Y106.235 E.00263
G1 X126.517 Y106.538 E.01189
;WIDTH:0.399212
G1 X126.043 Y106.893 E.01754
G1 X125.578 Y107.08 E.01484
;WIDTH:0.398969
G1 X125.06 Y107.156 E.01551
;WIDTH:0.395893
G1 X124.541 Y107.112 E.01529
G1 X124.09 Y106.952 E.01404
;WIDTH:0.397952
G1 X123.635 Y106.672 E.01578
;WIDTH:0.39867
G1 X123.224 Y106.229 E.01787
G1 X122.976 Y105.746 E.01606
;WIDTH:0.392878
G1 X122.862 Y105.243 E.01503
;WIDTH:0.403591
G1 X122.861 Y104.734 E.01526
G1 X123.002 Y104.17 E.01744
;WIDTH:0.406471
G1 X123.254 Y103.737 E.01513
G1 X123.652 Y103.31 E.01764
;WIDTH:0.397951
G1 X124.09 Y103.048 E.01506
;WIDTH:0.391433
G1 X124.514 Y102.9 E.01301
;WIDTH:0.394713
G1 X124.951 Y102.84 E.01291
;WIDTH:0.406027
G1 X125.465 Y102.894 E.01559
G1 X125.84 Y103.01 E.01187
;WIDTH:0.398593
G1 X126.365 Y103.328 E.01814
G1 X126.769 Y103.755 E.01739
;WIDTH:0.395219
G1 X127.005 Y104.198 E.01471
;WIDTH:0.399235
G1 X127.148 Y104.783 E.01784
G1 X127.142 Y105.261 E.01417
G1 X127.007 Y105.796 E.01634
;WIDTH:0.406848
G1 X126.838 Y106.106 E.01069
M204 S1000
;WIPE_START
G1 F8640
G1 X126.767 Y106.235 E-.03389
G1 X126.517 Y106.538 E-.09074
G1 X126.043 Y106.893 E-.1367
G1 X125.578 Y107.08 E-.11566
G1 X125.06 Y107.156 E-.12093
G1 X124.541 Y107.112 E-.12033
G1 X124.09 Y106.952 E-.11048
G1 X123.975 Y106.881 E-.03127
;WIPE_END
G1 E-.04 F2100
G1 Z.6 F720
G1 X126.494 Y103.982 F10800
G1 Z.2 F720
G1 E.8 F2100
M204 S800
;WIDTH:0.395219
G1 F1200
G1 X126.667 Y104.296 E.0105
;WIDTH:0.399235
G1 X126.793 Y104.801 E.01544
G1 X126.807 Y105 E.0059
;WIDTH:0.389025
G1 X126.763 Y105.384 E.01113
;WIDTH:0.393566
G1 X126.648 Y105.742 E.01096
;WIDTH:0.394567
G1 X126.341 Y106.211 E.01639
G1 X126.027 Y106.485 E.01219
;WIDTH:0.389776
G1 X125.703 Y106.664 E.01066
G1 X125.35 Y106.771 E.01065
;WIDTH:0.394181
G1 X124.982 Y106.809 E.01081
;WIDTH:0.396604
G1 X124.607 Y106.766 E.0111
G1 X124.264 Y106.651 E.01066
;WIDTH:0.397952
G1 X123.881 Y106.416 E.01326
;WIDTH:0.39867
G1 X123.522 Y106.035 E.01548
G1 X123.291 Y105.589 E.01487
;WIDTH:0.390689
G1 X123.208 Y105.222 E.01086
;WIDTH:0.390394
G1 X123.227 Y104.662 E.0162
;WIDTH:0.393567
G1 X123.352 Y104.258 E.01233
G1 X123.661 Y103.79 E.01635
;WIDTH:0.387647
G1 X123.973 Y103.515 E.01193
;WIDTH:0.395874
G1 X124.299 Y103.332 E.01095
;WIDTH:0.397777
G1 X124.69 Y103.219 E.01203
G1 X125.024 Y103.193 E.00988
;WIDTH:0.395073
G1 X125.577 Y103.287 E.01642
;WIDTH:0.394381
G1 X125.953 Y103.467 E.01218
;WIDTH:0.386418
G1 X126.245 Y103.693 E.01054
;WIDTH:0.394172
G1 X126.456 Y103.935 E.00939
M204 S1000
; stop printing object Body1.stl id:0 copy 0
M106 S84.15
;LAYER_CHANGE
;Z:0.4
;HEIGHT:0.2
;BEFORE_LAYER_CHANGE
G92 E0.0
;0.4


;WIPE_START
G1 F8640
G1 X126.667 Y104.296 E-.09643
G1 X126.793 Y104.801 E-.12033
G1 X126.807 Y105 E-.04599
G1 X126.763 Y105.384 E-.08928
G1 X126.648 Y105.742 E-.08681
M73 Q5 S7
G1 X126.341 Y106.211 E-.12945
G1 X126.027 Y106.485 E-.09628
G1 X125.703 Y106.664 E-.08532
G1 X125.662 Y106.677 E-.01012
;WIPE_END
G1 E-.04 F2100
G1 Z.6 F720
;AFTER_LAYER_CHANGE
;0.4
G1 X125.662 Y114.056 F10800
G1 Z.4 F720
G1 E.8 F2100
;TYPE:Skirt/Brim
;WIDTH:0.42
M73 P5 R7
G1 F1312
G1 X119.075 Y114.056 E.20652
G1 X117.555 Y113.663 E.04923
G1 X116.417 Y112.581 E.04923
G1 X115.944 Y110.925 E.054
G1 X115.944 Y99.075 E.37155
G1 X116.337 Y97.555 E.04923
G1 X117.419 Y96.417 E.04923
G1 X119.075 Y95.944 E.054
G1 X130.925 Y95.944 E.37155
G1 X132.445 Y96.337 E.04923
G1 X133.583 Y97.419 E.04923
G1 X134.056 Y99.075 E.054
G1 X134.056 Y110.925 E.37155
G1 X133.663 Y112.445 E.04923
G1 X132.581 Y113.583 E.04923
G1 X130.925 Y114.056 E.054
G1 X125.722 Y114.056 E.16315
G1 X125.722 Y113.679 F10800
G1 F1312
G1 X119.075 Y113.679 E.2084
G1 X117.658 Y113.286 E.04612
G1 X116.644 Y112.22 E.04612
G1 X116.321 Y110.925 E.04186
G1 X116.321 Y99.075 E.37155
G1 X116.714 Y97.658 E.04612
G1 X117.78 Y96.644 E.04612
G1 X119.075 Y96.321 E.04186
G1 X130.925 Y96.321 E.37155
G1 X132.342 Y96.714 E.04612
M73 P6 R7
M73 Q6 S7
G1 X133.356 Y97.78 E.04612
G1 X133.679 Y99.075 E.04186
G1 X133.679 Y110.925 E.37155
G1 X133.286 Y112.342 E.04612
G1 X132.22 Y113.356 E.04612
G1 X130.925 Y113.679 E.04186
G1 X125.782 Y113.679 E.16127
G1 X125.782 Y113.302 F10800
G1 F1312
G1 X119.075 Y113.302 E.21028
G1 X117.768 Y112.91 E.04278
G1 X116.892 Y111.865 E.04278
G1 X116.698 Y110.925 E.03008
G1 X116.698 Y99.075 E.37155
G1 X117.09 Y97.768 E.04278
G1 X118.135 Y96.892 E.04278
G1 X119.075 Y96.698 E.03008
G1 X130.925 Y96.698 E.37155
G1 X132.232 Y97.09 E.04278
G1 X133.108 Y98.135 E.04278
G1 X133.302 Y99.075 E.03008
G1 X133.302 Y110.925 E.37155
G1 X132.91 Y112.232 E.04278
G1 X131.865 Y113.108 E.04278
G1 X130.925 Y113.302 E.03008
G1 X125.842 Y113.302 E.15939
; printing object Body1.stl id:0 copy 0
;WIPE_START
G1 F8640
G1 X122.55 Y113.302 E-.76
;WIPE_END
G1 E-.04 F2100
G1 Z.8 F720
G1 X130.098 Y100.171 F10800
G1 Z.4 F720
G1 E.8 F2100
M204 S800
;TYPE:External perimeter
;WIDTH:0.58021
G1 F1312
M73 Q7 S7
G1 X130.098 Y109.829 E.43148
;WIDTH:0.626302
G1 X130.075 Y109.94 E.00551
;WIDTH:0.672394
M73 P7 R7
G1 X130.052 Y110.052 E.00595
G1 X129.964 Y110.074 E.00474
;WIDTH:0.628338
G1 X129.876 Y110.096 E.00441
;WIDTH:0.584281
G1 X129.829 Y110.098 E.00211
;WIDTH:0.58021
G1 X120.171 Y110.098 E.43148
;WIDTH:0.626302
G1 X120.06 Y110.075 E.00551
;WIDTH:0.672394
G1 X119.948 Y110.052 E.00595
G1 X119.925 Y109.94 E.00595
;WIDTH:0.626302
G1 X119.902 Y109.829 E.00551
;WIDTH:0.58021
G1 X119.902 Y100.171 E.43148
;WIDTH:0.626302
G1 X119.925 Y100.06 E.00551
;WIDTH:0.672394
G1 X119.948 Y99.948 E.00595
G1 X120.06 Y99.925 E.00595
;WIDTH:0.626302
G1 X120.171 Y99.902 E.00551
;WIDTH:0.58021
G1 X129.829 Y99.902 E.43148
G1 X130.055 Y100.129 E.01429
M204 S1000
G1 X130.498 Y100.175 F10800
;WIPE_START
G1 F8640
G1 X130.07 Y103.42 E-.76
;WIPE_END
G1 E-.04 F2100
G1 Z.8 F720
G1 X130.7 Y99.3 F10800
G1 Z.4 F720
G1 E.8 F2100
M204 S800
;WIDTH:0.449999
G1 F1312
G1 X130.7 Y99.726 E.01442
;WIDTH:0.493403
G1 X130.678 Y99.874 E.00562
;WIDTH:0.536807
G1 X130.657 Y100.023 E.00616
;WIDTH:0.58021
G1 X130.635 Y100.171 E.0067
G1 X130.635 Y109.829 E.43148
;WIDTH:0.58428
G1 X130.633 Y109.922 E.00421
;WIDTH:0.628337
G1 X130.611 Y110.256 E.01625
;WIDTH:0.672394
G1 X130.589 Y110.589 E.01748
G1 X130.209 Y110.612 E.01992
;WIDTH:0.626302
G1 X129.829 Y110.635 E.01846
;WIDTH:0.58021
G1 X120.171 Y110.635 E.43148
;WIDTH:0.626302
G1 X119.791 Y110.612 E.01846
;WIDTH:0.672394
G1 X119.411 Y110.589 E.01992
G1 X119.388 Y110.209 E.01992
;WIDTH:0.626302
G1 X119.365 Y109.829 E.01846
;WIDTH:0.58021
G1 X119.365 Y100.171 E.43148
;WIDTH:0.626302
G1 X119.388 Y99.791 E.01846
;WIDTH:0.672394
G1 X119.411 Y99.411 E.01992
G1 X119.791 Y99.388 E.01992
;WIDTH:0.626302
G1 X120.171 Y99.365 E.01846
;WIDTH:0.58021
G1 X129.829 Y99.365 E.43148
G1 X129.977 Y99.343 E.0067
;WIDTH:0.536807
G1 X130.126 Y99.322 E.00616
;WIDTH:0.493403
G1 X130.274 Y99.3 E.00562
;WIDTH:0.449999
G1 X130.64 Y99.3 E.01239
M204 S1000
G1 X130.33 Y99.726 F10800
M204 S800
;TYPE:Perimeter
;WIDTH:0.48771
G1 F1312
G1 X130.302 Y99.774 E.00206
G1 X130.246 Y99.774 E.00206
G1 X130.218 Y99.726 E.00206
G1 X130.246 Y99.678 E.00206
G1 X130.302 Y99.678 E.00206
M204 S1000
;WIPE_START
G1 F8640
G1 X130.246 Y99.678 E-.01284
G1 X130.218 Y99.726 E-.01284
G1 X130.246 Y99.774 E-.01284
G1 X130.302 Y99.774 E-.01284
G1 X130.33 Y99.726 E-.01284
;WIPE_END
G1 E-.73581 F2100
G1 Z.8 F720
G1 X126.795 Y106.199 F10800
G1 Z.4 F720
G1 E.8 F2100
M204 S800
;TYPE:External perimeter
;WIDTH:0.407188
G1 F1312
G1 X126.543 Y106.506 E.01204
G1 X126.289 Y106.716 E.00996
;WIDTH:0.390384
M73 Q8 S7
G1 X125.888 Y106.962 E.01361
G1 X125.461 Y107.101 E.01296
;WIDTH:0.393021
G1 X124.94 Y107.156 E.01527
;WIDTH:0.398546
G1 X124.379 Y107.067 E.0168
G1 X123.83 Y106.815 E.01786
;WIDTH:0.397947
G1 X123.428 Y106.475 E.01554
;WIDTH:0.397575
G1 X123.106 Y106.044 E.01587
;WIDTH:0.400658
G1 X122.921 Y105.578 E.0149
G1 X122.844 Y104.94 E.01913
;WIDTH:0.398354
G1 X122.933 Y104.379 E.01679
;WIDTH:0.407591
G1 X123.166 Y103.871 E.01693
M73 P8 R7
G1 X123.487 Y103.459 E.01583
;WIDTH:0.399213
G1 X123.957 Y103.107 E.0174
G1 X124.422 Y102.921 E.01484
;WIDTH:0.398932
G1 X124.923 Y102.848 E.01501
;WIDTH:0.406374
G1 X125.465 Y102.894 E.01642
G1 X125.84 Y103.01 E.01188
;WIDTH:0.398608
G1 X126.365 Y103.328 E.01815
G1 X126.766 Y103.75 E.01722
;WIDTH:0.395215
G1 X127.005 Y104.198 E.01488
;WIDTH:0.399236
G1 X127.148 Y104.783 E.01783
G1 X127.142 Y105.261 E.01417
G1 X127.005 Y105.802 E.01651
;WIDTH:0.395219
G1 X126.823 Y106.146 E.01141
M204 S1000
;WIPE_START
G1 F8640
G1 X126.543 Y106.506 E-.10542
G1 X126.289 Y106.716 E-.07591
G1 X125.888 Y106.962 E-.10875
G1 X125.461 Y107.101 E-.10356
G1 X124.94 Y107.156 E-.1211
G1 X124.379 Y107.067 E-.13116
G1 X123.929 Y106.861 E-.1141
;WIPE_END
G1 E-.04 F2100
G1 Z.8 F720
G1 X126.493 Y103.988 F10800
G1 Z.4 F720
G1 E.8 F2100
M204 S800
;WIDTH:0.395215
G1 F1312
G1 X126.667 Y104.296 E.01036
;WIDTH:0.399236
G1 X126.793 Y104.801 E.01544
G1 X126.793 Y105.199 E.01177
G1 X126.667 Y105.704 E.01544
;WIDTH:0.395939
G1 X126.46 Y106.067 E.01225
G1 X126.064 Y106.457 E.01631
;WIDTH:0.389776
G1 X125.703 Y106.664 E.012
G1 X125.35 Y106.771 E.01065
;WIDTH:0.393021
G1 X124.982 Y106.808 E.01077
;WIDTH:0.398546
G1 X124.505 Y106.735 E.01427
G1 X124.027 Y106.522 E.01547
;WIDTH:0.397947
G1 X123.668 Y106.22 E.01386
;WIDTH:0.397575
G1 X123.422 Y105.879 E.0124
;WIDTH:0.400658
G1 X123.275 Y105.523 E.01146
G1 X123.193 Y105.024 E.01502
;WIDTH:0.398354
G1 X123.265 Y104.504 E.01552
G1 X123.351 Y104.271 E.00736
;WIDTH:0.392371
G1 X123.659 Y103.79 E.0166
G1 X123.973 Y103.515 E.01213
;WIDTH:0.389777
G1 X124.297 Y103.336 E.01066
G1 X124.649 Y103.229 E.01063
;WIDTH:0.396326
G1 X125.013 Y103.192 E.01073
G1 X125.576 Y103.287 E.01679
;WIDTH:0.394477
G1 X125.953 Y103.467 E.01221
;WIDTH:0.3866
G1 X126.245 Y103.693 E.01055
;WIDTH:0.393313
G1 X126.462 Y103.937 E.0095
M204 S1000
; stop printing object Body1.stl id:0 copy 0
M106 S170.85
;LAYER_CHANGE
;Z:0.6
;HEIGHT:0.2
;BEFORE_LAYER_CHANGE
G92 E0.0
;0.6


;WIPE_START
G1 F8640
G1 X126.667 Y104.296 E-.0955
G1 X126.793 Y104.801 E-.12033
G1 X126.793 Y105.199 E-.09174
G1 X126.667 Y105.704 E-.12033
G1 X126.46 Y106.067 E-.09635
G1 X126.064 Y106.457 E-.1283
G1 X125.703 Y106.664 E-.09605
G1 X125.656 Y106.678 E-.0114
;WIPE_END
G1 E-.04 F2100
G1 Z.8 F720
;AFTER_LAYER_CHANGE
;0.6
G1 X125.656 Y114.056 F10800
G1 Z.6 F720
