; generated by PrusaSlicer 2.5.0+win64 on 2023-02-28 at 20:29:26 UTC


;
;
; 

; external perimeters extrusion width = 0.45mm
; perimeters extrusion width = 0.45mm
; infill extrusion width = 0.45mm
; solid infill extrusion width = 0.45mm
; top infill extrusion width = 0.40mm
; support material extrusion width = 0.35mm
; first layer extrusion width = 0.42mm

M73 P0 R68
M73 Q0 S69
M201 X1000 Y1000 Z200 E5000 ; sets maximum accelerations, mm/sec^2
M203 X200 Y200 Z12 E120 ; sets maximum feedrates, mm / sec
M204 P1250 R1250 T1250 ; sets acceleration (P, T) and retract acceleration (R), mm/sec^2
M205 X8.00 Y8.00 Z0.40 E4.50 ; sets the jerk limits, mm/sec
M205 S0 T0 ; sets the minimum extruding and travel feed rate, mm/sec
M107
;TYPE:Custom
M862.3 P "MK3S" ; printer model check
M862.1 P0.4 ; nozzle diameter check
M115 U3.11.0 ; tell printer latest fw version
G90 ; use absolute coordinates
M83 ; extruder relative mode
M104 S215 ; set extruder temp
M140 S60 ; set bed temp
M190 S60 ; wait for bed temp
M109 S215 ; wait for extruder temp
G28 W ; home all without mesh bed level
G80 ; mesh bed leveling

G1 Z0.2 F720
G1 Y-3 F1000 ; go outside print area
G92 E0
G1 X60 E9 F1000 ; intro line
G1 X100 E12.5 F1000 ; intro line

G92 E0
M221 S95

; Don't change E values below. Excessive value can damage the printer.

M907 E538 ; set extruder motor current
G21 ; set units to millimeters
G90 ; use absolute coordinates
M83 ; use relative distances for extrusion
M900 K0.05 ; Filament gcode LA 1.5
M900 K30 ; Filament gcode LA 1.0
M107
;LAYER_CHANGE
;Z:0.2
;HEIGHT:0.2
;BEFORE_LAYER_CHANGE
G92 E0.0
;0.2


G1 E-.8 F2100
M73 P0 R67
G1 Z.4 F720
;AFTER_LAYER_CHANGE
;0.2
G1 X82.343 Y69.997 F10800
G1 Z.2 F720
G1 E.8 F2100
M204 S800
;TYPE:Skirt/Brim
;WIDTH:0.42
G1 F1200
G1 X85.26 Y67.079 E.12938
G1 X86.889 Y66.383 E.05551
G1 X90.363 Y66.315 E.10896
G1 X159.535 Y66.205 E2.16883
G1 X163.004 Y66.273 E.10881
M73 Q0 S68
G1 X164.632 Y66.969 E.05551
G1 X167.55 Y69.887 E.12938
G1 X168.246 Y71.515 E.05551
G1 X168.746 Y105.219 E1.0569
G1 X168.663 Y143.83 E1.2106
G1 X168.595 Y147.28 E.1082
G1 X167.899 Y148.908 E.05551
G1 X164.982 Y151.826 E.12938
G1 X163.353 Y152.521 E.05551
G1 X99.639 Y153.384 E1.99791
G1 X87.253 Y153.316 E.38835
G1 X85.625 Y152.62 E.05551
G1 X82.707 Y149.702 E.12938
G1 X82.012 Y148.074 E.05551
G1 X81.354 Y114.408 E1.05578
G1 X81.349 Y104.852 E.29963
G1 X81.647 Y71.625 E1.04186
G1 X82.319 Y70.052 E.05363
M204 S1000
;WIPE_START
G1 F8640
G1 X84.634 Y67.712 E-.76
;WIPE_END
G1 E-.04 F2100
G1 Z.6 F720
G1 X88.843 Y129.619 F10800
G1 Z.2 F720
G1 E.8 F2100
M204 S800
G1 F1200
G1 X90.199 Y129.568 E.04256
G1 X99.739 Y129.565 E.29911
G1 X101.753 Y129.659 E.06322
G1 X102.723 Y129.935 E.03164
G1 X103.594 Y130.39 E.03079
G1 X104.86 Y131.621 E.05536
G1 X105.321 Y132.446 E.02966
G1 X105.627 Y133.332 E.02936
G1 X105.764 Y135.657 E.07305
G1 X105.762 Y144.712 E.28389
G1 X105.627 Y146.953 E.0704
G1 X105.326 Y147.829 E.02904
G1 X104.886 Y148.627 E.02859
G1 X103.49 Y149.962 E.06053
G1 X102.441 Y150.449 E.03626
G1 X101.58 Y150.647 E.0277
G1 X99.712 Y150.72 E.05863
G1 X90.702 Y150.72 E.28251
G1 X88.935 Y150.673 E.05539
G1 X87.772 Y150.395 E.03751
G1 X86.716 Y149.853 E.03722
G1 X85.318 Y148.373 E.06383
G1 X84.871 Y147.379 E.03416
G1 X84.68 Y146.536 E.02711
G1 X84.608 Y144.661 E.05883
G1 X84.607 Y135.658 E.28228
G1 X84.655 Y133.897 E.05524
G1 X84.901 Y132.812 E.03488
G1 X85.406 Y131.768 E.03639
G1 X86.962 Y130.267 E.06777
G1 X87.63 Y129.95 E.02318
G1 X88.785 Y129.635 E.03754
M204 S1000
G1 X88.884 Y129.999 F10800
M204 S800
G1 F1200
G1 X90.202 Y129.945 E.04136
G1 X99.727 Y129.942 E.29864
G1 X101.672 Y130.028 E.06107
G1 X102.566 Y130.279 E.02911
G1 X103.395 Y130.712 E.0293
G1 X104.544 Y131.829 E.05025
G1 X104.984 Y132.615 E.02826
G1 X105.261 Y133.429 E.02694
G1 X105.386 Y135.662 E.07015
G1 X105.385 Y144.696 E.28324
G1 X105.261 Y146.856 E.06785
G1 X104.987 Y147.662 E.02668
G1 X104.569 Y148.42 E.02716
G1 X103.303 Y149.633 E.05496
G1 X102.301 Y150.099 E.03466
G1 X101.548 Y150.271 E.0242
G1 X99.708 Y150.343 E.05774
G1 X90.704 Y150.343 E.28231
G1 X88.965 Y150.296 E.05455
G1 X87.924 Y150.05 E.03355
G1 X86.917 Y149.532 E.03549
G1 X85.649 Y148.189 E.0579
G1 X85.222 Y147.242 E.03258
G1 X85.056 Y146.504 E.02371
G1 X84.985 Y144.657 E.05795
G1 X84.984 Y135.661 E.28208
G1 X85.031 Y133.926 E.0544
G1 X85.263 Y132.919 E.03242
G1 X85.73 Y131.963 E.03334
G1 X87.152 Y130.594 E.0619
G1 X87.746 Y130.309 E.02064
G1 X88.826 Y130.014 E.03511
M204 S1000
G1 X88.925 Y130.373 F10800
M204 S800
G1 F1200
G1 X90.205 Y130.322 E.04016
G1 X99.715 Y130.319 E.29817
G1 X101.592 Y130.397 E.0589
G1 X102.445 Y130.636 E.02778
G1 X103.194 Y131.032 E.02658
G1 X104.228 Y132.037 E.04519
G1 X104.646 Y132.784 E.02684
G1 X104.896 Y133.524 E.02449
G1 X105.009 Y135.667 E.06729
G1 X105.008 Y144.681 E.28262
G1 X104.896 Y146.761 E.06531
G1 X104.649 Y147.495 E.02428
G1 X104.253 Y148.213 E.02573
G1 X103.116 Y149.304 E.0494
G1 X102.16 Y149.748 E.03305
G1 X101.516 Y149.895 E.0207
G1 X99.704 Y149.965 E.05685
G1 X90.707 Y149.966 E.28212
G1 X88.995 Y149.92 E.05368
G1 X88.035 Y149.689 E.03097
G1 X87.119 Y149.213 E.03237
G1 X85.98 Y148.006 E.05203
G1 X85.574 Y147.105 E.03099
G1 X85.432 Y146.473 E.02031
G1 X85.362 Y144.654 E.05707
G1 X85.361 Y135.663 E.28189
G1 X85.407 Y133.956 E.05355
G1 X85.625 Y133.026 E.02994
G1 X86.053 Y132.16 E.0303
G1 X87.344 Y130.92 E.05611
G1 X87.863 Y130.667 E.01812
G1 X88.868 Y130.389 E.03267
M204 S1000
G1 X88.969 Y130.748 F10800
M204 S800
G1 F1200
G1 X90.209 Y130.699 E.03891
G1 X99.704 Y130.696 E.29773
G1 X101.513 Y130.766 E.05676
G1 X102.287 Y130.979 E.02517
G1 X102.994 Y131.353 E.02508
G1 X103.912 Y132.245 E.04012
G1 X104.308 Y132.952 E.02541
G1 X104.53 Y133.618 E.02201
G1 X104.632 Y135.672 E.06446
G1 X104.631 Y144.667 E.28204
G1 X104.53 Y146.667 E.06279
G1 X104.31 Y147.328 E.02185
G1 X103.936 Y148.007 E.02429
G1 X102.928 Y148.975 E.04383
G1 X102.019 Y149.398 E.03144
G1 X101.484 Y149.519 E.01719
G1 X99.701 Y149.588 E.05597
G1 X90.709 Y149.589 E.28192
G1 X89.026 Y149.543 E.0528
G1 X88.148 Y149.328 E.02834
G1 X87.322 Y148.894 E.02925
G1 X86.311 Y147.822 E.0462
G1 X85.926 Y146.967 E.02939
G1 X85.809 Y146.441 E.01691
G1 X85.739 Y144.65 E.0562
G1 X85.738 Y135.666 E.28169
G1 X85.784 Y133.986 E.05269
G1 X85.987 Y133.136 E.02741
G1 X86.376 Y132.358 E.02727
G1 X87.536 Y131.245 E.05041
G1 X87.983 Y131.025 E.01561
G1 X88.911 Y130.764 E.03022
M204 S1000
G1 X89.014 Y131.121 F10800
M204 S800
G1 F1200
G1 X90.212 Y131.076 E.0376
G1 X99.694 Y131.073 E.29732
G1 X101.436 Y131.136 E.05466
G1 X102.13 Y131.323 E.02252
G1 X102.795 Y131.674 E.02357
G1 X103.597 Y132.453 E.03505
G1 X103.97 Y133.12 E.02397
G1 X104.163 Y133.711 E.01949
G1 X104.255 Y135.676 E.06168
G1 X104.254 Y144.654 E.2815
G1 X104.163 Y146.574 E.06029
G1 X103.971 Y147.162 E.01939
G1 X103.619 Y147.8 E.02283
G1 X102.741 Y148.647 E.03826
G1 X101.879 Y149.047 E.0298
G1 X101.453 Y149.143 E.01369
M73 P1 R67
G1 X99.697 Y149.211 E.05509
G1 X90.712 Y149.212 E.28173
G1 X89.057 Y149.167 E.05189
M73 Q1 S68
G1 X88.263 Y148.968 E.02567
G1 X87.527 Y148.576 E.02614
G1 X86.642 Y147.639 E.04043
G1 X86.278 Y146.83 E.02779
G1 X86.185 Y146.41 E.01352
G1 X86.116 Y144.646 E.05533
G1 X86.115 Y135.668 E.2815
G1 X86.16 Y134.016 E.05184
G1 X86.334 Y133.285 E.02355
G1 X86.698 Y132.556 E.02556
G1 X87.73 Y131.569 E.04475
G1 X88.105 Y131.383 E.01313
G1 X88.956 Y131.138 E.02777
M204 S1000
G1 X89.061 Y131.495 F10800
M204 S800
G1 F1200
G1 X90.215 Y131.453 E.03622
G1 X99.685 Y131.45 E.29692
G1 X101.359 Y131.506 E.05252
G1 X102.01 Y131.681 E.02114
G1 X102.593 Y131.994 E.02073
G1 X103.281 Y132.661 E.03006
G1 X103.631 Y133.287 E.0225
G1 X103.797 Y133.801 E.01693
G1 X103.878 Y135.679 E.05894
G1 X103.878 Y144.642 E.28101
G1 X103.796 Y146.484 E.05782
G1 X103.632 Y146.996 E.01688
G1 X103.303 Y147.593 E.02137
G1 X102.553 Y148.318 E.03269
G1 X101.739 Y148.697 E.02815
G1 X101.422 Y148.766 E.01019
G1 X99.693 Y148.834 E.05423
G1 X90.714 Y148.835 E.28153
G1 X89.089 Y148.791 E.05098
G1 X88.38 Y148.609 E.02295
G1 X87.734 Y148.259 E.02305
G1 X86.973 Y147.455 E.03471
G1 X86.63 Y146.694 E.02617
G1 X86.561 Y146.378 E.01012
G1 X86.493 Y144.643 E.05447
G1 X86.493 Y135.671 E.2813
G1 X86.537 Y134.046 E.05096
G1 X86.695 Y133.396 E.02098
G1 X87.02 Y132.756 E.02252
G1 X87.925 Y131.893 E.03922
G1 X88.229 Y131.739 E.01067
G1 X89.003 Y131.511 E.0253
M204 S1000
G1 X89.104 Y131.869 F10800
M204 S800
G1 F1200
G1 X90.219 Y131.83 E.03496
G1 X99.677 Y131.827 E.29656
G1 X101.285 Y131.876 E.05046
G1 X101.852 Y132.024 E.01837
G1 X102.392 Y132.314 E.01919
G1 X102.965 Y132.869 E.02504
G1 X103.292 Y133.454 E.02101
G1 X103.429 Y133.889 E.01432
G1 X103.501 Y135.683 E.05628
G1 X103.501 Y144.63 E.28055
G1 X103.429 Y146.396 E.05539
G1 X103.292 Y146.831 E.01432
G1 X102.986 Y147.387 E.01989
G1 X102.365 Y147.99 E.02712
G1 X101.6 Y148.346 E.02647
G1 X101.391 Y148.39 E.00669
G1 X99.69 Y148.457 E.05339
G1 X90.717 Y148.458 E.28133
G1 X89.122 Y148.414 E.05003
G1 X88.5 Y148.251 E.02016
G1 X87.941 Y147.943 E.01998
G1 X87.303 Y147.271 E.02906
G1 X86.982 Y146.557 E.02453
G1 X86.937 Y146.348 E.00672
G1 X86.87 Y144.639 E.05362
G1 X86.87 Y135.673 E.2811
G1 X86.913 Y134.078 E.05006
G1 X87.055 Y133.51 E.01835
G1 X87.34 Y132.957 E.01949
G1 X88.123 Y132.215 E.03382
G1 X88.356 Y132.095 E.00823
G1 X89.047 Y131.886 E.02263
M204 S1000
G1 X89.143 Y132.245 F10800
M204 S800
G1 F1200
G1 X90.222 Y132.207 E.03385
G1 X99.669 Y132.204 E.29621
G1 X101.214 Y132.247 E.04846
G1 X101.695 Y132.368 E.01555
G1 X102.191 Y132.634 E.01762
G1 X102.65 Y133.077 E.02002
G1 X102.953 Y133.619 E.01948
G1 X103.061 Y133.975 E.01164
G1 X103.124 Y135.686 E.05369
G1 X103.124 Y144.62 E.28013
G1 X103.061 Y146.31 E.05301
G1 X102.952 Y146.667 E.01171
G1 X102.67 Y147.179 E.01832
G1 X102.13 Y147.693 E.02339
G1 X101.466 Y147.993 E.02285
G1 X101.362 Y148.014 E.00333
G1 X99.678 Y148.08 E.05282
G1 X90.719 Y148.081 E.28091
G1 X89.153 Y148.038 E.04912
G1 X88.661 Y147.909 E.01595
G1 X88.149 Y147.627 E.01835
G1 X87.634 Y147.087 E.02339
G1 X87.335 Y146.422 E.02285
G1 X87.313 Y146.318 E.00333
G1 X87.247 Y144.635 E.05282
G1 X87.247 Y135.676 E.28091
G1 X87.289 Y134.11 E.04912
G1 X87.414 Y133.626 E.01566
G1 X87.658 Y133.161 E.01648
G1 X88.322 Y132.536 E.0286
G1 X88.486 Y132.449 E.00582
G1 X89.086 Y132.263 E.01969
M204 S1000
G1 X89.183 Y132.621 F10800
M204 S800
G1 F1200
G1 X90.226 Y132.584 E.03269
G1 X99.663 Y132.581 E.29589
G1 X101.147 Y132.618 E.04656
G1 X101.539 Y132.712 E.01266
G1 X101.99 Y132.954 E.01602
G1 X102.334 Y133.286 E.01501
G1 X102.613 Y133.784 E.0179
G1 X102.693 Y134.056 E.00889
G1 X102.747 Y135.689 E.05121
G1 X102.747 Y144.611 E.27976
G1 X102.693 Y146.228 E.05072
G1 X102.611 Y146.504 E.00903
G1 X102.354 Y146.972 E.01675
G1 X101.944 Y147.364 E.01778
G1 X101.327 Y147.638 E.02117
G1 X99.667 Y147.703 E.05208
G1 X90.722 Y147.704 E.28048
G1 X89.185 Y147.662 E.04821
G1 X88.822 Y147.568 E.01174
G1 X88.355 Y147.31 E.01671
G1 X87.963 Y146.901 E.01778
G1 X87.689 Y146.284 E.02117
G1 X87.624 Y144.624 E.05208
G1 X87.624 Y135.679 E.28048
G1 X87.666 Y134.141 E.04822
G1 X87.758 Y133.782 E.01162
G1 X87.977 Y133.365 E.01478
G1 X88.525 Y132.854 E.0235
G1 X88.621 Y132.801 E.00343
G1 X89.126 Y132.639 E.01664
M204 S1000
G1 X89.225 Y132.997 F10800
M204 S800
G1 F1200
G1 X90.229 Y132.961 E.0315
G1 X99.656 Y132.958 E.29556
G1 X101.118 Y132.994 E.04588
G1 X101.388 Y133.058 E.00869
G1 X101.749 Y133.245 E.01273
G1 X102.051 Y133.536 E.01316
G1 X102.27 Y133.942 E.01446
G1 X102.323 Y134.133 E.00622
G1 X102.37 Y135.691 E.04888
G1 X102.37 Y144.603 E.27942
G1 X102.323 Y146.151 E.04855
G1 X102.27 Y146.343 E.00624
G1 X102.039 Y146.762 E.01502
G1 X101.713 Y147.064 E.01393
G1 X101.259 Y147.263 E.01554
G1 X99.656 Y147.326 E.05029
G1 X90.724 Y147.326 E.28005
G1 X89.216 Y147.285 E.04732
G1 X88.983 Y147.226 E.00753
G1 X88.565 Y146.995 E.01497
G1 X88.263 Y146.67 E.01393
G1 X88.064 Y146.216 E.01554
G1 X88.001 Y144.613 E.05029
G1 X88.001 Y135.681 E.28005
G1 X88.042 Y134.173 E.04732
G1 X88.102 Y133.938 E.00759
G1 X88.295 Y133.57 E.01303
G1 X88.734 Y133.168 E.01866
G1 X89.168 Y133.016 E.01441
M204 S1000
G1 X89.269 Y133.372 F10800
M204 S800
G1 F1200
G1 X90.232 Y133.338 E.03024
G1 X99.648 Y133.335 E.29523
G1 X101.091 Y133.371 E.04523
G1 X101.236 Y133.404 E.00469
G1 X101.548 Y133.566 E.011
G1 X101.762 Y133.78 E.00948
G1 X101.924 Y134.093 E.01107
G1 X101.952 Y134.204 E.00358
G1 X101.993 Y135.694 E.04674
G1 X101.993 Y144.596 E.27912
G1 X101.952 Y146.08 E.04657
G1 X101.924 Y146.191 E.00356
G1 X101.757 Y146.509 E.01128
G1 X101.483 Y146.764 E.01174
G1 X101.149 Y146.901 E.01131
G1 X99.648 Y146.949 E.0471
G1 X90.727 Y146.949 E.27971
G1 X89.247 Y146.909 E.04643
G1 X89.137 Y146.881 E.00356
G1 X88.818 Y146.714 E.01128
G1 X88.563 Y146.439 E.01174
G1 X88.426 Y146.106 E.01131
G1 X88.378 Y144.605 E.0471
G1 X88.378 Y135.684 E.27971
G1 X88.418 Y134.204 E.04643
G1 X88.446 Y134.093 E.00356
G1 X88.612 Y133.777 E.01119
G1 X88.941 Y133.488 E.01373
G1 X89.212 Y133.392 E.00901
M204 S1000
G1 X89.315 Y133.748 F10800
M204 S800
G1 F1200
G1 X90.236 Y133.716 E.02888
G1 X99.641 Y133.712 E.2949
G1 X101.064 Y133.747 E.04462
G1 X101.305 Y133.856 E.00829
G1 X101.471 Y134.022 E.00735
G1 X101.58 Y134.263 E.00829
G1 X101.616 Y135.696 E.04493
G1 X101.616 Y144.589 E.27883
G1 X101.58 Y146.021 E.04492
G1 X101.473 Y146.259 E.00818
G1 X101.256 Y146.46 E.00929
G1 X101.05 Y146.537 E.00686
G1 X99.641 Y146.572 E.04419
G1 X90.734 Y146.572 E.27929
G1 X89.306 Y146.537 E.04477
G1 X89.069 Y146.429 E.00818
G1 X88.867 Y146.212 E.00929
G1 X88.79 Y146.007 E.00686
G1 X88.755 Y144.598 E.04419
G1 X88.755 Y135.691 E.27929
G1 X88.797 Y134.232 E.04574
G1 X88.898 Y134.025 E.00722
G1 X89.114 Y133.825 E.00923
G1 X89.259 Y133.769 E.00489
M204 S1000
G1 X89.369 Y134.123 F10800
M204 S800
G1 F1200
G1 X90.239 Y134.093 E.02732
G1 X99.634 Y134.089 E.29457
G1 X101 Y134.123 E.04285
G1 X101.067 Y134.152 E.00227
G1 X101.176 Y134.26 E.00481
G1 X101.204 Y134.327 E.00227
G1 X101.239 Y135.698 E.04301
G1 X101.239 Y144.586 E.27869
G1 X101.204 Y145.957 E.043
G1 X101.176 Y146.024 E.00227
G1 X101.067 Y146.132 E.00481
G1 X101 Y146.161 E.00227
G1 X99.634 Y146.195 E.04285
G1 X90.741 Y146.195 E.27884
G1 X89.37 Y146.161 E.043
G1 X89.303 Y146.132 E.00227
G1 X89.195 Y146.024 E.00481
G1 X89.166 Y145.957 E.00227
G1 X89.132 Y144.591 E.04285
G1 X89.132 Y135.698 E.27884
G1 X89.166 Y134.327 E.043
G1 X89.195 Y134.26 E.00227
G1 X89.314 Y134.147 E.00513
M204 S1000
;WIPE_START
G1 F8640
G1 X90.239 Y134.093 E-.21412
G1 X92.603 Y134.092 E-.54588
;WIPE_END
G1 E-.04 F2100
G1 Z.6 F720
G1 X114.202 Y134.717 F10800
G1 Z.2 F720
G1 E.8 F2100
M204 S800
G1 F1200
G1 X114.25 Y132.956 E.05524
G1 X114.496 Y131.871 E.03488
G1 X115.001 Y130.826 E.03639
G1 X116.557 Y129.325 E.06777
M73 P1 R66
G1 X117.225 Y129.008 E.02318
G1 X118.438 Y128.678 E.03942
G1 X119.794 Y128.626 E.04256
G1 X129.334 Y128.624 E.29911
G1 X131.348 Y128.717 E.06322
G1 X132.319 Y128.994 E.03164
G1 X133.189 Y129.449 E.03079
G1 X134.455 Y130.679 E.05536
G1 X134.917 Y131.505 E.02966
G1 X135.222 Y132.39 E.02936
G1 X135.359 Y134.716 E.07305
G1 X135.357 Y143.77 E.28389
G1 X135.222 Y146.011 E.0704
G1 X134.921 Y146.888 E.02904
G1 X134.481 Y147.686 E.02859
G1 X133.086 Y149.02 E.06053
G1 X132.037 Y149.508 E.03626
G1 X131.176 Y149.706 E.0277
G1 X129.307 Y149.778 E.05863
G1 X120.297 Y149.779 E.28251
G1 X118.531 Y149.731 E.05539
G1 X117.367 Y149.454 E.03751
G1 X116.311 Y148.911 E.03722
G1 X114.914 Y147.431 E.06383
G1 X114.466 Y146.438 E.03416
G1 X114.276 Y145.595 E.02711
G1 X114.203 Y143.72 E.05883
G1 X114.202 Y134.777 E.2804
M204 S1000
G1 X114.58 Y134.777 F10800
M204 S800
G1 F1200
G1 X114.626 Y132.985 E.0562
G1 X114.859 Y131.977 E.03242
G1 X115.325 Y131.022 E.03334
G1 X116.747 Y129.652 E.0619
G1 X117.341 Y129.367 E.02064
G1 X118.516 Y129.047 E.03818
G1 X119.797 Y129.003 E.04021
M73 Q1 S67
G1 X129.322 Y129 E.29864
G1 X131.268 Y129.086 E.06107
G1 X132.162 Y129.337 E.02911
G1 X132.99 Y129.77 E.0293
G1 X134.139 Y130.887 E.05025
G1 X134.579 Y131.674 E.02826
G1 X134.857 Y132.487 E.02694
G1 X134.982 Y134.721 E.07015
G1 X134.98 Y143.754 E.28324
G1 X134.857 Y145.915 E.06785
G1 X134.583 Y146.72 E.02668
