; generated by PrusaSlicer 2.5.0+win64 on 2023-02-27 at 20:23:05 UTC


;
;
; 

; external perimeters extrusion width = 0.45mm
; perimeters extrusion width = 0.45mm
; infill extrusion width = 0.45mm
; solid infill extrusion width = 0.45mm
; top infill extrusion width = 0.40mm
; support material extrusion width = 0.35mm
; first layer extrusion width = 0.42mm

M73 P0 R74
M73 Q0 S75
M201 X1000 Y1000 Z200 E5000 ; sets maximum accelerations, mm/sec^2
M203 X200 Y200 Z12 E120 ; sets maximum feedrates, mm / sec
M204 P1250 R1250 T1250 ; sets acceleration (P, T) and retract acceleration (R), mm/sec^2
M205 X8.00 Y8.00 Z0.40 E4.50 ; sets the jerk limits, mm/sec
M205 S0 T0 ; sets the minimum extruding and travel feed rate, mm/sec
M107
;TYPE:Custom
M862.3 P "MK3S" ; printer model check
M862.1 P0.4 ; nozzle diameter check
M115 U3.11.0 ; tell printer latest fw version
G90 ; use absolute coordinates
M83 ; extruder relative mode
M104 S215 ; set extruder temp
M140 S60 ; set bed temp
M190 S60 ; wait for bed temp
M109 S215 ; wait for extruder temp
G28 W ; home all without mesh bed level
G80 ; mesh bed leveling

G1 Z0.2 F720
G1 Y-3 F1000 ; go outside print area
G92 E0
G1 X60 E9 F1000 ; intro line
G1 X100 E12.5 F1000 ; intro line

G92 E0
M221 S95

; Don't change E values below. Excessive value can damage the printer.

M907 E538 ; set extruder motor current
G21 ; set units to millimeters
G90 ; use absolute coordinates
M83 ; use relative distances for extrusion
M900 K0.05 ; Filament gcode LA 1.5
M900 K30 ; Filament gcode LA 1.0
M107
;LAYER_CHANGE
;Z:0.2
;HEIGHT:0.2
;BEFORE_LAYER_CHANGE
G92 E0.0
;0.2


G1 E-.8 F2100
G1 Z.4 F720
;AFTER_LAYER_CHANGE
;0.2
G1 X100.006 Y72.035 F10800
G1 Z.2 F720
G1 E.8 F2100
M204 S800
;TYPE:Skirt/Brim
;WIDTH:0.42
G1 F1200
G1 X101.055 Y71.162 E.04278
G1 X101.987 Y70.972 E.02983
G1 X119.857 Y70.972 E.5603
G1 X149.983 Y71.224 E.94463
G1 X151.287 Y71.626 E.04278
G1 X152.155 Y72.679 E.04278
G1 X152.34 Y73.596 E.02931
G1 X152.407 Y103.549 E.93918
G1 X152.357 Y158.237 E1.7147
M73 Q0 S74
G1 X151.964 Y159.544 E.04278
G1 X150.917 Y160.419 E.04278
G1 X150.219 Y160.599 E.0226
G1 X120.046 Y163.64 E.95085
G1 X102.196 Y163.64 E.55967
G1 X100.889 Y163.249 E.04278
G1 X100.012 Y162.203 E.04278
G1 X99.819 Y161.297 E.02905
G1 X99.593 Y145.34 E.50035
G1 X99.506 Y103.313 E1.31774
G1 X99.61 Y73.341 E.93977
G1 X99.988 Y72.092 E.0409
M204 S1000
; printing object Body1.stl id:0 copy 11
;WIPE_START
G1 F8640
G1 X101.055 Y71.162 E-.32671
G1 X101.987 Y70.972 E-.21969
G1 X102.912 Y70.972 E-.2136
;WIPE_END
G1 E-.04 F2100
G1 Z.6 F720
G1 X118.239 Y83.601 F10800
G1 Z.2 F720
G1 E.8 F2100
M204 S800
;TYPE:Support material
G1 F1200
G1 X103.584 Y83.601 E.4595
G1 X103.584 Y74.946 E.27137
G1 X118.239 Y74.946 E.4595
G1 X118.239 Y83.545 E.2696
M204 S1000
;WIPE_START
G1 F8640
G1 X118.239 Y80.253 E-.76
;WIPE_END
G1 E-.04 F2100
G1 Z.6 F720
G1 X113.802 Y76.434 F10800
G1 Z.2 F720
G1 E.8 F2100
M204 S800
G1 F1200
G1 X113.274 Y76.504 E.01669
G1 X112.781 Y76.666 E.01629
G1 X112.325 Y76.915 E.01629
G1 X111.912 Y77.254 E.01674
G1 X111.578 Y77.651 E.01629
G1 X111.405 Y77.935 E.01041
G1 X111.26 Y78.25 E.01087
G1 X111.118 Y78.749 E.01629
G1 X111.069 Y79.281 E.01674
G1 X111.09 Y79.613 E.01041
G1 X111.149 Y79.941 E.01047
G1 X111.322 Y80.444 E.01668
G1 X111.578 Y80.896 E.01629
G1 X111.922 Y81.304 E.01674
G1 X112.173 Y81.522 E.01041
G1 X112.459 Y81.717 E.01087
G1 X112.928 Y81.941 E.01629
G1 X113.43 Y82.075 E.01629
G1 X113.962 Y82.116 E.01674
G1 X114.479 Y82.059 E.01629
G1 X114.8 Y81.974 E.01041
G1 X115.122 Y81.846 E.01086
G1 X115.57 Y81.583 E.01629
G1 X115.962 Y81.243 E.01629
G1 X116.294 Y80.824 E.01674
G1 X116.537 Y80.365 E.01629
G1 X116.65 Y80.037 E.01087
G1 X116.72 Y79.713 E.01041
G1 X116.753 Y79.194 E.01629
G1 X116.691 Y78.679 E.01629
G1 X116.531 Y78.169 E.01675
G1 X116.377 Y77.859 E.01087
G1 X116.195 Y77.581 E.01041
G1 X115.849 Y77.194 E.01629
G1 X115.426 Y76.868 E.01674
G1 X114.963 Y76.633 E.01629
G1 X114.465 Y76.486 E.01629
G1 X114.136 Y76.44 E.01041
G1 X113.859 Y76.433 E.00869
M204 S1000
G1 X107.802 Y76.434 F10800
M204 S800
G1 F1200
G1 X107.274 Y76.504 E.01669
G1 X106.781 Y76.666 E.01629
G1 X106.325 Y76.915 E.01629
G1 X105.912 Y77.254 E.01674
G1 X105.69 Y77.501 E.01041
G1 X105.498 Y77.774 E.01047
G1 X105.26 Y78.25 E.01669
G1 X105.118 Y78.749 E.01629
G1 X105.069 Y79.281 E.01674
G1 X105.091 Y79.627 E.01087
G1 X105.152 Y79.953 E.01041
G1 X105.322 Y80.444 E.01629
G1 X105.578 Y80.896 E.01629
G1 X105.922 Y81.304 E.01674
G1 X106.184 Y81.531 E.01087
G1 X106.459 Y81.717 E.01041
G1 X106.928 Y81.941 E.01629
G1 X107.43 Y82.075 E.01629
G1 X107.962 Y82.116 E.01674
G1 X108.479 Y82.059 E.01629
G1 X108.8 Y81.974 E.01041
G1 X109.122 Y81.846 E.01086
G1 X109.57 Y81.583 E.01629
G1 X109.972 Y81.232 E.01674
G1 X110.294 Y80.824 E.01629
G1 X110.537 Y80.365 E.01629
G1 X110.65 Y80.037 E.01087
G1 X110.72 Y79.713 E.01041
G1 X110.753 Y79.194 E.01629
G1 X110.691 Y78.679 E.01629
G1 X110.531 Y78.169 E.01674
G1 X110.384 Y77.871 E.01041
G1 X110.195 Y77.581 E.01087
G1 X109.849 Y77.194 E.01629
G1 X109.426 Y76.868 E.01674
G1 X108.963 Y76.633 E.01629
G1 X108.465 Y76.486 E.01629
G1 X108.136 Y76.44 E.01041
G1 X107.859 Y76.433 E.00869
M204 S1000
;WIPE_START
G1 F8640
G1 X108.136 Y76.44 E-.06401
G1 X108.465 Y76.486 E-.07665
G1 X108.963 Y76.633 E-.11995
G1 X109.426 Y76.868 E-.11995
G1 X109.849 Y77.194 E-.12331
G1 X110.195 Y77.581 E-.11996
G1 X110.384 Y77.871 E-.08001
G1 X110.492 Y78.09 E-.05616
;WIPE_END
G1 E-.04 F2100
G1 Z.6 F720
G1 X117.615 Y83.432 F10800
G1 Z.2 F720
G1 E.8 F2100
M204 S800
G1 F1200
G1 X117.615 Y75.286 E.25541
G1 X117.196 Y75.286 E.01314
G1 X117.196 Y83.262 E.25009
G1 X116.778 Y83.262 E.01314
G1 X116.778 Y80.656 E.08171
G1 X116.581 Y81.006 E.01258
G1 X116.359 Y81.308 E.01175
G1 X116.359 Y83.262 E.06128
G1 X115.94 Y83.262 E.01314
G1 X115.94 Y81.726 E.04816
G1 X115.521 Y82.018 E.01601
G1 X115.521 Y83.262 E.03901
G1 X115.102 Y83.262 E.01314
G1 X115.102 Y82.225 E.03252
G1 X114.683 Y82.36 E.0138
G1 X114.683 Y83.262 E.02827
G1 X114.264 Y83.262 E.01314
G1 X114.264 Y82.435 E.02593
G1 X113.845 Y82.454 E.01315
G1 X113.845 Y83.262 E.02533
G1 X113.426 Y83.262 E.01314
G1 X113.426 Y82.418 E.02647
G1 X113.007 Y82.324 E.01346
G1 X113.007 Y83.262 E.0294
G1 X112.588 Y83.262 E.01314
G1 X112.588 Y82.166 E.03436
G1 X112.169 Y81.935 E.01501
G1 X112.169 Y83.262 E.04161
G1 X111.75 Y83.262 E.01314
G1 X111.75 Y81.607 E.0519
G1 X111.537 Y81.391 E.0095
G1 X111.331 Y81.133 E.01034
G1 X111.331 Y83.262 E.06674
G1 X110.912 Y83.262 E.01314
G1 X110.912 Y80.334 E.0918
G1 X110.761 Y80.691 E.01213
G1 X110.493 Y81.133 E.01623
G1 X110.493 Y83.262 E.06674
G1 X110.074 Y83.262 E.01314
G1 X110.074 Y81.608 E.05185
G1 X109.655 Y81.935 E.01666
G1 X109.655 Y83.262 E.04161
G1 X109.236 Y83.262 E.01314
G1 X109.236 Y82.166 E.03435
G1 X108.817 Y82.323 E.01403
G1 X108.817 Y83.262 E.02944
G1 X108.398 Y83.262 E.01314
G1 X108.398 Y82.418 E.02648
G1 X107.979 Y82.455 E.01319
G1 X107.979 Y83.262 E.02531
G1 X107.56 Y83.262 E.01314
G1 X107.56 Y82.436 E.02589
G1 X107.141 Y82.36 E.01335
G1 X107.141 Y83.262 E.02828
G1 X106.722 Y83.262 E.01314
G1 X106.722 Y82.224 E.03255
G1 X106.303 Y82.019 E.01462
G1 X106.303 Y83.262 E.03897
G1 X105.884 Y83.262 E.01314
G1 X105.884 Y81.725 E.04821
G1 X105.67 Y81.532 E.00902
G1 X105.465 Y81.307 E.00956
G1 X105.465 Y83.262 E.06131
G1 X105.046 Y83.262 E.01314
G1 X105.046 Y80.654 E.08176
G1 X104.936 Y80.401 E.00866
G1 X104.821 Y80.03 E.01217
G1 X104.755 Y79.673 E.01138
G1 X104.73 Y79.286 E.01216
G1 X104.752 Y78.899 E.01217
G1 X104.821 Y78.517 E.01216
G1 X104.936 Y78.147 E.01216
G1 X105.046 Y77.893 E.00866
G1 X105.046 Y75.286 E.08176
G1 X105.465 Y75.286 E.01314
G1 X105.465 Y77.241 E.06131
G1 X105.67 Y77.016 E.00956
G1 X105.884 Y76.823 E.00902
G1 X105.884 Y75.286 E.04821
G1 X106.303 Y75.286 E.01314
G1 X106.303 Y76.529 E.03897
G1 X106.722 Y76.324 E.01462
G1 X106.722 Y75.286 E.03255
G1 X107.141 Y75.286 E.01314
G1 X107.141 Y76.188 E.02828
G1 X107.56 Y76.111 E.01335
G1 X107.56 Y75.286 E.02589
G1 X107.979 Y75.286 E.01314
G1 X107.979 Y76.093 E.02531
G1 X108.398 Y76.13 E.01319
G1 X108.398 Y75.286 E.02648
G1 X108.817 Y75.286 E.01314
G1 X108.817 Y76.225 E.02944
G1 X109.236 Y76.381 E.01403
G1 X109.236 Y75.286 E.03435
G1 X109.655 Y75.286 E.01314
G1 X109.655 Y76.613 E.04161
G1 X110.074 Y76.939 E.01666
G1 X110.074 Y75.286 E.05185
G1 X110.493 Y75.286 E.01314
G1 X110.493 Y77.414 E.06674
G1 X110.761 Y77.857 E.01623
G1 X110.912 Y78.214 E.01214
G1 X110.912 Y75.286 E.0918
G1 X111.331 Y75.286 E.01314
G1 X111.331 Y77.414 E.06674
G1 X111.537 Y77.156 E.01034
G1 X111.75 Y76.941 E.0095
G1 X111.75 Y75.286 E.0519
G1 X112.169 Y75.286 E.01314
G1 X112.169 Y76.613 E.04161
G1 X112.588 Y76.381 E.01501
G1 X112.588 Y75.286 E.03436
G1 X113.007 Y75.286 E.01314
G1 X113.007 Y76.223 E.0294
G1 X113.426 Y76.13 E.01346
G1 X113.426 Y75.286 E.02647
G1 X113.845 Y75.286 E.01314
G1 X113.845 Y76.094 E.02533
G1 X114.264 Y76.113 E.01315
G1 X114.264 Y75.286 E.02593
G1 X114.683 Y75.286 E.01314
G1 X114.683 Y76.187 E.02827
G1 X115.102 Y76.323 E.0138
G1 X115.102 Y75.286 E.03252
G1 X115.521 Y75.286 E.01314
G1 X115.521 Y76.53 E.03901
G1 X115.94 Y76.822 E.01601
G1 X115.94 Y75.286 E.04816
G1 X116.359 Y75.286 E.01314
G1 X116.359 Y77.24 E.06128
G1 X116.581 Y77.542 E.01176
G1 X116.778 Y77.892 E.01258
G1 X116.778 Y75.116 E.08703
M204 S1000
;WIPE_START
G1 F8640
G1 X116.778 Y77.892 E-.64091
G1 X116.581 Y77.542 E-.09262
G1 X116.513 Y77.45 E-.02647
;WIPE_END
G1 E-.04 F2100
G1 Z.6 F720
G1 X104.627 Y83.432 F10800
G1 Z.2 F720
G1 E.8 F2100
M204 S800
G1 F1200
G1 X104.627 Y75.286 E.25541
G1 X104.208 Y75.286 E.01314
G1 X104.208 Y83.432 E.25541
M204 S1000
;WIPE_START
G1 F8640
G1 X104.208 Y80.14 E-.76
;WIPE_END
G1 E-.04 F2100
G1 Z.6 F720
G1 X102.41 Y84.776 F10800
G1 Z.2 F720
G1 E.8 F2100
M204 S800
;TYPE:External perimeter
;WIDTH:0.471981
G1 F1200
G1 X102.389 Y84.522 E.00909
;WIDTH:0.442499
G1 X102.368 Y84.268 E.00847
;WIDTH:0.42
G1 X102.368 Y74.271 E.31345
;WIDTH:0.442469
G1 X102.389 Y74.021 E.00831
;WIDTH:0.471981
G1 X102.41 Y73.772 E.00893
G1 X102.664 Y73.751 E.00909
;WIDTH:0.442478
G1 X102.918 Y73.73 E.00847
;WIDTH:0.419998
G1 X118.838 Y73.722 E.49916
;WIDTH:0.418233
G1 X118.908 Y73.724 E.00218
;WIDTH:0.445231
G1 X119.16 Y73.747 E.00848
;WIDTH:0.473378
G1 X119.413 Y73.77 E.00908
G1 X119.435 Y74.025 E.00916
;WIDTH:0.443197
G1 X119.456 Y74.28 E.00851
;WIDTH:0.42
G1 X119.467 Y74.835 E.01741
G1 X119.456 Y84.277 E.29605
;WIDTH:0.442468
G1 X119.435 Y84.526 E.00831
;WIDTH:0.471981
G1 X119.414 Y84.776 E.00893
G1 X119.16 Y84.797 E.00909
;WIDTH:0.442478
G1 X118.906 Y84.818 E.00847
;WIDTH:0.42
G1 X102.909 Y84.818 E.50158
;WIDTH:0.442449
G1 X102.659 Y84.797 E.00831
;WIDTH:0.471981
G1 X102.47 Y84.781 E.00679
M204 S1000
;WIPE_START
G1 F8640
G1 X102.389 Y84.522 E-.06267
G1 X102.368 Y84.268 E-.05885
G1 X102.368 Y81.503 E-.63848
;WIPE_END
G1 E-.04 F2100
G1 Z.6 F720
G1 X118.838 Y74.097 F10800
G1 Z.2 F720
G1 E.8 F2100
M204 S800
;WIDTH:0.445806
G1 F1200
G1 X118.945 Y74.114 E.00363
;WIDTH:0.473378
G1 X119.052 Y74.131 E.00388
G1 X119.069 Y74.208 E.00281
;WIDTH:0.443197
G1 X119.086 Y74.285 E.00262
;WIDTH:0.42
G1 X119.086 Y84.263 E.31286
;WIDTH:0.442498
G1 X119.069 Y84.339 E.00258
;WIDTH:0.471981
G1 X119.053 Y84.415 E.00277
G1 X118.979 Y84.431 E.00269
;WIDTH:0.442449
G1 X118.906 Y84.448 E.0025
;WIDTH:0.419999
G1 X102.923 Y84.448 E.50114
;WIDTH:0.442478
G1 X102.847 Y84.431 E.00258
;WIDTH:0.471981
G1 X102.771 Y84.415 E.00277
G1 X102.754 Y84.339 E.00277
;WIDTH:0.442499
G1 X102.738 Y84.263 E.00258
;WIDTH:0.42
G1 X102.738 Y74.285 E.31286
;WIDTH:0.442499
G1 X102.754 Y74.209 E.00258
;WIDTH:0.471981
G1 X102.771 Y74.133 E.00277
G1 X102.847 Y74.116 E.00277
;WIDTH:0.442478
G1 X102.923 Y74.1 E.00258
;WIDTH:0.419998
G1 X118.778 Y74.097 E.49713
M204 S1000
;WIPE_START
G1 F8640
G1 X118.945 Y74.114 E-.03878
G1 X119.052 Y74.131 E-.02503
G1 X119.069 Y74.208 E-.01814
G1 X119.086 Y74.285 E-.01814
G1 X119.086 Y77.143 E-.65991
;WIPE_END
G1 E-.04 F2100
G1 Z.6 F720
G1 X111.786 Y78.937 F10800
G1 Z.2 F720
G1 E.8 F2100
M204 S800
;WIDTH:0.398634
G1 F1200
G1 X111.811 Y78.768 E.00505
;WIDTH:0.399881
G1 X111.956 Y78.36 E.01285
G1 X112.233 Y77.914 E.01559
;WIDTH:0.398911
G1 X112.626 Y77.543 E.01599
;WIDTH:0.392551
G1 X113.026 Y77.307 E.01352
;WIDTH:0.392705
G1 X113.408 Y77.177 E.01172
;WIDTH:0.398534
G1 X113.966 Y77.115 E.01662
;WIDTH:0.399814
G1 X114.486 Y77.192 E.01559
G1 X115.016 Y77.421 E.01714
;WIDTH:0.392501
G1 X115.39 Y77.702 E.01359
;WIDTH:0.39969
G1 X115.719 Y78.088 E.01505
;WIDTH:0.40026
G1 X115.945 Y78.547 E.0152
G1 X116.05 Y78.962 E.0127
;WIDTH:0.397904
G1 X116.065 Y79.162 E.00593
;WIDTH:0.399276
G1 X116.025 Y79.73 E.01687
G1 X115.857 Y80.213 E.01517
;WIDTH:0.400247
G1 X115.653 Y80.552 E.01173
;WIDTH:0.400362
G1 X115.368 Y80.869 E.0127
G1 X114.92 Y81.181 E.01621
;WIDTH:0.391925
G1 X114.475 Y81.356 E.01389
G1 X113.972 Y81.426 E.01471
;WIDTH:0.400456
G1 X113.438 Y81.381 E.01595
G1 X113.049 Y81.256 E.01215
;WIDTH:0.399847
G1 X112.607 Y80.996 E.0152
;WIDTH:0.399694
G1 X112.306 Y80.72 E.01213
G1 X112.012 Y80.301 E.01519
;WIDTH:0.398336
G1 X111.854 Y79.939 E.01168
;WIDTH:0.398634
G1 X111.769 Y79.553 E.01168
G1 X111.753 Y79.16 E.01165
G1 X111.777 Y78.996 E.00489
M204 S1000
G1 X111.942 Y78.868 F10800
;WIPE_START
G1 F8640
G1 X111.811 Y78.768 E-.05326
G1 X111.956 Y78.36 E-.09993
G1 X112.233 Y77.914 E-.12128
G1 X112.626 Y77.543 E-.12471
G1 X113.026 Y77.307 E-.10739
G1 X113.408 Y77.177 E-.09306
G1 X113.966 Y77.115 E-.12977
G1 X114.097 Y77.134 E-.0306
;WIPE_END
G1 E-.04 F2100
G1 Z.6 F720
G1 X112.219 Y79.896 F10800
G1 Z.2 F720
G1 E.8 F2100
M204 S800
;WIDTH:0.394074
G1 F1200
G1 X112.174 Y79.776 E.00373
G1 X112.107 Y79.394 E.01134
G1 X112.11 Y79.122 E.00792
G1 X112.186 Y78.735 E.01154
;WIDTH:0.392475
G1 X112.346 Y78.373 E.01148
G1 X112.578 Y78.053 E.01149
;WIDTH:0.400254
G1 X112.991 Y77.723 E.0157
G1 X113.459 Y77.523 E.01511
;WIDTH:0.398534
G1 X113.929 Y77.468 E.014
;WIDTH:0.399814
G1 X114.373 Y77.53 E.01332
G1 X114.847 Y77.727 E.01522
;WIDTH:0.397316
G1 X115.215 Y78.021 E.01389
;WIDTH:0.39969
G1 X115.415 Y78.277 E.00964
;WIDTH:0.40026
G1 X115.616 Y78.684 E.01348
G1 X115.716 Y79.166 E.01463
;WIDTH:0.399276
G1 X115.678 Y79.644 E.01421
G1 X115.493 Y80.152 E.01604
;WIDTH:0.393074
G1 X115.245 Y80.494 E.01229
;WIDTH:0.397688
G1 X114.881 Y80.799 E.01402
G1 X114.388 Y81.018 E.01591
;WIDTH:0.39752
G1 X113.822 Y81.079 E.01676
G1 X113.329 Y80.986 E.01479
;WIDTH:0.391484
G1 X112.96 Y80.809 E.01186
;WIDTH:0.399694
G1 X112.569 Y80.479 E.01518
G1 X112.477 Y80.372 E.0042
;WIDTH:0.392284
G1 X112.269 Y80.03 E.01161
;WIDTH:0.394074
G1 X112.24 Y79.952 E.00244
M204 S1000
;WIPE_START
G1 F8640
G1 X112.174 Y79.776 E-.04336
G1 X112.107 Y79.394 E-.08968
G1 X112.11 Y79.122 E-.06263
G1 X112.186 Y78.735 E-.09123
G1 X112.346 Y78.373 E-.09123
G1 X112.578 Y78.053 E-.09131
G1 X112.991 Y77.723 E-.122
G1 X113.459 Y77.523 E-.11745
G1 X113.678 Y77.498 E-.05112
;WIPE_END
G1 E-.04 F2100
G1 Z.6 F720
G1 X109.748 Y80.409 F10800
G1 Z.2 F720
G1 E.8 F2100
M204 S800
;WIDTH:0.398227
M73 Q1 S74
G1 F1200
G1 X109.734 Y80.435 E.00086
;WIDTH:0.395352
G1 X109.447 Y80.787 E.01329
;WIDTH:0.396198
G1 X109.087 Y81.088 E.0138
;WIDTH:0.404138
G1 X108.73 Y81.271 E.01204
G1 X108.321 Y81.395 E.01284
;WIDTH:0.398788
M73 P1 R74
G1 X107.696 Y81.421 E.01851
;WIDTH:0.392701
G1 X107.181 Y81.303 E.01537
;WIDTH:0.39724
G1 X106.702 Y81.067 E.01573
;WIDTH:0.39952
G1 X106.317 Y80.729 E.01518
;WIDTH:0.400487
G1 X106.078 Y80.415 E.01173
G1 X105.887 Y80.027 E.01287
;WIDTH:0.397629
G1 X105.761 Y79.462 E.01707
;WIDTH:0.394196
G1 X105.782 Y78.933 E.01546
;WIDTH:0.399824
G1 X105.946 Y78.376 E.01723
G1 X106.21 Y77.944 E.01504
;WIDTH:0.400405
G1 X106.481 Y77.656 E.01174
G1 X106.827 Y77.406 E.0127
;WIDTH:0.400254
G1 X107.346 Y77.193 E.01669
;WIDTH:0.392319
G1 X107.789 Y77.121 E.01301
G1 X108.258 Y77.15 E.01366
;WIDTH:0.392817
G1 X108.712 Y77.271 E.01367
;WIDTH:0.394558
G1 X109.124 Y77.487 E.0136
G1 X109.385 Y77.697 E.0098
G1 X109.683 Y78.038 E.01323
G1 X109.907 Y78.459 E.01394
;WIDTH:0.399591
G1 X110.05 Y78.962 E.0155
G1 X110.069 Y79.225 E.00782
;WIDTH:0.395321
G1 X110.032 Y79.689 E.01365
;WIDTH:0.398227
