; generated by PrusaSlicer 2.5.0+win64 on 2023-02-27 at 19:53:49 UTC


;
;
; 

; external perimeters extrusion width = 0.45mm
; perimeters extrusion width = 0.45mm
; infill extrusion width = 0.45mm
; solid infill extrusion width = 0.45mm
; top infill extrusion width = 0.40mm
; support material extrusion width = 0.35mm
; first layer extrusion width = 0.42mm

M73 P0 R25
M73 Q0 S26
M201 X1000 Y1000 Z200 E5000 ; sets maximum accelerations, mm/sec^2
M203 X200 Y200 Z12 E120 ; sets maximum feedrates, mm / sec
M204 P1250 R1250 T1250 ; sets acceleration (P, T) and retract acceleration (R), mm/sec^2
M205 X8.00 Y8.00 Z0.40 E4.50 ; sets the jerk limits, mm/sec
M205 S0 T0 ; sets the minimum extruding and travel feed rate, mm/sec
M107
;TYPE:Custom
M862.3 P "MK3S" ; printer model check
M862.1 P0.4 ; nozzle diameter check
M115 U3.11.0 ; tell printer latest fw version
G90 ; use absolute coordinates
M83 ; extruder relative mode
M104 S215 ; set extruder temp
M140 S60 ; set bed temp
M190 S60 ; wait for bed temp
M109 S215 ; wait for extruder temp
G28 W ; home all without mesh bed level
G80 ; mesh bed leveling

G1 Z0.2 F720
G1 Y-3 F1000 ; go outside print area
G92 E0
G1 X60 E9 F1000 ; intro line
G1 X100 E12.5 F1000 ; intro line

G92 E0
M221 S95

; Don't change E values below. Excessive value can damage the printer.

M907 E538 ; set extruder motor current
G21 ; set units to millimeters
G90 ; use absolute coordinates
M83 ; use relative distances for extrusion
M900 K0.05 ; Filament gcode LA 1.5
M900 K30 ; Filament gcode LA 1.0
M107
;LAYER_CHANGE
;Z:0.2
;HEIGHT:0.2
;BEFORE_LAYER_CHANGE
G92 E0.0
;0.2


M73 Q0 S25
G1 E-.8 F2100
G1 Z.4 F720
;AFTER_LAYER_CHANGE
;0.2
G1 X111.385 Y94.162 F10800
G1 Z.2 F720
G1 E.8 F2100
M204 S800
;TYPE:Skirt/Brim
;WIDTH:0.42
G1 F1200
G1 X112.452 Y93.149 E.04612
G1 X113.747 Y92.826 E.04186
G1 X137.597 Y92.826 E.7478
G1 X139.014 Y93.218 E.04612
G1 X140.028 Y94.285 E.04612
G1 X140.351 Y95.58 E.04186
G1 X140.351 Y119.43 E.7478
G1 X139.958 Y120.847 E.04612
G1 X138.892 Y121.86 E.04612
G1 X137.597 Y122.184 E.04186
G1 X113.747 Y122.184 E.7478
G1 X112.329 Y121.791 E.04612
G1 X111.316 Y120.725 E.04612
G1 X110.993 Y119.43 E.04186
G1 X110.993 Y95.58 E.7478
G1 X111.369 Y94.22 E.04424
M204 S1000
G1 X111.744 Y94.332 F10800
M204 S800
G1 F1200
G1 X111.761 Y94.273 E.00195
G1 X112.807 Y93.396 E.04278
G1 X113.747 Y93.203 E.03008
G1 X137.597 Y93.203 E.7478
G1 X138.904 Y93.594 E.04278
G1 X139.78 Y94.64 E.04278
G1 X139.974 Y95.58 E.03008
G1 X139.974 Y119.43 E.7478
G1 X139.582 Y120.737 E.04278
M73 P1 R25
M73 Q1 S25
G1 X138.537 Y121.613 E.04278
G1 X137.597 Y121.807 E.03008
G1 X113.747 Y121.807 E.7478
G1 X112.44 Y121.415 E.04278
G1 X111.563 Y120.37 E.04278
G1 X111.37 Y119.43 E.03008
G1 X111.37 Y95.58 E.7478
G1 X111.726 Y94.39 E.03895
M204 S1000
; printing object Body1.stl id:0 copy 0
;WIPE_START
G1 F8640
G1 X111.761 Y94.273 E-.0282
G1 X112.807 Y93.396 E-.31505
G1 X113.747 Y93.203 E-.22155
G1 X114.592 Y93.203 E-.1952
;WIPE_END
G1 E-.04 F2100
G1 Z.6 F720
G1 X135.999 Y117.832 F10800
G1 Z.2 F720
G1 E.8 F2100
M204 S800
;TYPE:Support material
G1 F1200
G1 X115.344 Y117.832 E.64762
G1 X115.344 Y97.177 E.64762
G1 X135.999 Y97.177 E.64762
G1 X135.999 Y117.776 E.64585
M204 S1000
;WIPE_START
G1 F8640
G1 X135.999 Y114.484 E-.76
;WIPE_END
G1 E-.04 F2100
G1 Z.6 F720
G1 X119.572 Y110.664 F10800
G1 Z.2 F720
G1 E.8 F2100
M204 S800
G1 F1200
G1 X119.122 Y110.716 E.01422
G1 X118.91 Y110.766 E.00683
G1 X118.518 Y110.907 E.01307
G1 X118.306 Y111.012 E.0074
G1 X117.968 Y111.23 E.01261
G1 X117.617 Y111.54 E.01468
G1 X117.361 Y111.85 E.01261
G1 X117.233 Y112.044 E.00729
G1 X117.032 Y112.451 E.01422
G1 X116.959 Y112.656 E.00683
G1 X116.864 Y113.062 E.01307
G1 X116.829 Y113.514 E.01422
G1 X116.86 Y113.915 E.01261
G1 X116.902 Y114.144 E.00729
G1 X117.039 Y114.576 E.01422
G1 X117.224 Y114.949 E.01307
G1 X117.342 Y115.133 E.00683
G1 X117.485 Y115.32 E.0074
G1 X117.774 Y115.621 E.01307
G1 X118.135 Y115.896 E.01422
G1 X118.488 Y116.088 E.01261
G1 X118.702 Y116.177 E.00729
G1 X119.14 Y116.297 E.01422
G1 X119.355 Y116.33 E.00683
G1 X119.772 Y116.346 E.01307
G1 X120.222 Y116.294 E.01422
G1 X120.61 Y116.188 E.01261
G1 X120.826 Y116.102 E.00729
G1 X121.038 Y115.998 E.0074
G1 X121.388 Y115.771 E.01307
G1 X121.726 Y115.469 E.01422
G1 X121.871 Y115.306 E.00683
G1 X122.111 Y114.965 E.01307
G1 X122.312 Y114.559 E.01422
G1 X122.438 Y114.161 E.01307
G1 X122.48 Y113.948 E.00683
G1 X122.514 Y113.496 E.01422
G1 X122.484 Y113.095 E.01261
G1 X122.442 Y112.866 E.00729
G1 X122.305 Y112.434 E.01422
G1 X122.12 Y112.06 E.01307
G1 X122.002 Y111.877 E.00683
G1 X121.714 Y111.527 E.01422
G1 X121.556 Y111.377 E.00683
G1 X121.225 Y111.124 E.01307
G1 X120.826 Y110.907 E.01422
G1 X120.624 Y110.826 E.00683
G1 X120.222 Y110.716 E.01307
G1 X119.989 Y110.68 E.00741
G1 X119.629 Y110.664 E.0113
M204 S1000
G1 X125.572 Y110.664 F10800
M204 S800
G1 F1200
G1 X125.122 Y110.716 E.01422
G1 X124.91 Y110.766 E.00683
G1 X124.518 Y110.907 E.01307
G1 X124.306 Y111.012 E.0074
G1 X123.956 Y111.239 E.01307
G1 X123.617 Y111.54 E.01422
G1 X123.361 Y111.85 E.01261
G1 X123.233 Y112.044 E.00729
G1 X123.032 Y112.451 E.01422
G1 X122.91 Y112.834 E.01261
G1 X122.864 Y113.062 E.00729
G1 X122.829 Y113.514 E.01422
G1 X122.86 Y113.915 E.01261
G1 X122.902 Y114.144 E.00729
G1 X122.965 Y114.371 E.0074
G1 X123.12 Y114.758 E.01307
G1 X123.352 Y115.148 E.01422
G1 X123.485 Y115.32 E.00683
G1 X123.774 Y115.621 E.01307
G1 X124.135 Y115.896 E.01422
G1 X124.501 Y116.095 E.01307
G1 X124.702 Y116.177 E.00683
G1 X125.14 Y116.297 E.01422
G1 X125.355 Y116.33 E.00683
G1 X125.772 Y116.346 E.01307
G1 X126.222 Y116.294 E.01422
G1 X126.434 Y116.243 E.00683
G1 X126.826 Y116.102 E.01307
G1 X127.225 Y115.886 E.01422
G1 X127.402 Y115.76 E.00683
G1 X127.714 Y115.482 E.01307
G1 X128.002 Y115.133 E.01422
G1 X128.215 Y114.774 E.01307
G1 X128.312 Y114.559 E.00741
G1 X128.438 Y114.161 E.01307
G1 X128.48 Y113.948 E.00683
G1 X128.514 Y113.496 E.01422
G1 X128.484 Y113.095 E.01261
G1 X128.442 Y112.866 E.00729
G1 X128.305 Y112.434 E.01422
G1 X128.127 Y112.073 E.01261
G1 X128.002 Y111.877 E.00729
G1 X127.714 Y111.527 E.01422
G1 X127.414 Y111.259 E.01261
G1 X127.225 Y111.124 E.00729
G1 X126.826 Y110.907 E.01422
G1 X126.624 Y110.826 E.00683
G1 X126.222 Y110.716 E.01307
G1 X125.989 Y110.68 E.00741
G1 X125.629 Y110.664 E.0113
M204 S1000
G1 X131.572 Y110.664 F10800
M204 S800
G1 F1200
G1 X131.122 Y110.716 E.01422
G1 X130.91 Y110.766 E.00683
G1 X130.518 Y110.907 E.01307
G1 X130.306 Y111.012 E.0074
G1 X129.968 Y111.23 E.01261
G1 X129.617 Y111.54 E.01468
G1 X129.361 Y111.85 E.01261
G1 X129.233 Y112.044 E.00729
G1 X129.032 Y112.451 E.01422
G1 X128.91 Y112.834 E.01261
G1 X128.864 Y113.062 E.00729
G1 X128.829 Y113.514 E.01422
G1 X128.86 Y113.915 E.01261
G1 X128.902 Y114.144 E.00729
G1 X128.965 Y114.371 E.0074
G1 X129.12 Y114.758 E.01307
G1 X129.352 Y115.148 E.01422
G1 X129.617 Y115.469 E.01307
G1 X129.774 Y115.621 E.00683
G1 X130.135 Y115.896 E.01422
G1 X130.488 Y116.088 E.01261
G1 X130.702 Y116.177 E.00729
G1 X131.14 Y116.297 E.01422
G1 X131.355 Y116.33 E.00683
G1 X131.772 Y116.346 E.01307
G1 X132.222 Y116.294 E.01422
G1 X132.61 Y116.188 E.01261
G1 X132.826 Y116.102 E.00729
G1 X133.225 Y115.886 E.01422
G1 X133.402 Y115.76 E.00683
G1 X133.714 Y115.482 E.01307
G1 X134.002 Y115.133 E.01422
G1 X134.215 Y114.774 E.01307
G1 X134.312 Y114.559 E.00741
G1 X134.438 Y114.161 E.01307
G1 X134.48 Y113.948 E.00683
G1 X134.514 Y113.496 E.01422
G1 X134.484 Y113.095 E.01261
G1 X134.442 Y112.866 E.00729
G1 X134.305 Y112.434 E.01422
G1 X134.215 Y112.235 E.00683
G1 X134.002 Y111.877 E.01307
G1 X133.714 Y111.527 E.01422
G1 X133.402 Y111.25 E.01307
G1 X133.225 Y111.124 E.00683
G1 X132.826 Y110.907 E.01422
G1 X132.624 Y110.826 E.00683
G1 X132.222 Y110.716 E.01307
G1 X131.989 Y110.68 E.00741
G1 X131.629 Y110.664 E.0113
M204 S1000
;WIPE_START
G1 F8640
G1 X131.989 Y110.68 E-.0832
G1 X132.222 Y110.716 E-.05455
G1 X132.624 Y110.826 E-.09623
G1 X132.826 Y110.907 E-.05028
G1 X133.225 Y111.124 E-.10473
G1 X133.402 Y111.25 E-.05027
G1 X133.714 Y111.527 E-.09625
G1 X134.002 Y111.877 E-.10473
G1 X134.215 Y112.235 E-.09623
G1 X134.257 Y112.328 E-.02353
;WIPE_END
G1 E-.04 F2100
G1 Z.6 F720
G1 X125.572 Y104.664 F10800
G1 Z.2 F720
G1 E.8 F2100
M204 S800
G1 F1200
G1 X125.122 Y104.716 E.01422
G1 X124.91 Y104.766 E.00683
G1 X124.518 Y104.907 E.01307
G1 X124.306 Y105.012 E.0074
G1 X123.956 Y105.239 E.01307
G1 X123.617 Y105.54 E.01422
G1 X123.361 Y105.85 E.01261
G1 X123.233 Y106.044 E.00729
G1 X123.032 Y106.451 E.01422
G1 X122.959 Y106.656 E.00683
G1 X122.864 Y107.062 E.01307
G1 X122.829 Y107.514 E.01422
G1 X122.86 Y107.915 E.01261
G1 X122.902 Y108.144 E.00729
G1 X122.965 Y108.371 E.0074
G1 X123.12 Y108.758 E.01307
G1 X123.352 Y109.148 E.01422
G1 X123.617 Y109.469 E.01307
G1 X123.774 Y109.621 E.00683
G1 X124.135 Y109.896 E.01422
G1 X124.488 Y110.088 E.01261
G1 X124.702 Y110.177 E.00729
G1 X125.14 Y110.297 E.01422
G1 X125.355 Y110.33 E.00683
G1 X125.772 Y110.346 E.01307
G1 X126.222 Y110.294 E.01422
G1 X126.434 Y110.243 E.00683
G1 X126.826 Y110.102 E.01307
G1 X127.225 Y109.886 E.01422
G1 X127.556 Y109.633 E.01307
G1 X127.714 Y109.482 E.00683
G1 X127.871 Y109.306 E.0074
G1 X128.103 Y108.978 E.01261
G1 X128.312 Y108.559 E.01468
G1 X128.385 Y108.354 E.00683
G1 X128.48 Y107.948 E.01307
G1 X128.514 Y107.496 E.01422
G1 X128.484 Y107.095 E.01261
G1 X128.442 Y106.866 E.00729
G1 X128.305 Y106.434 E.01422
G1 X128.127 Y106.073 E.01261
G1 X128.002 Y105.877 E.00729
G1 X127.714 Y105.527 E.01422
G1 X127.414 Y105.259 E.01261
G1 X127.225 Y105.124 E.00729
G1 X126.826 Y104.907 E.01422
G1 X126.624 Y104.826 E.00683
G1 X126.222 Y104.716 E.01307
G1 X125.989 Y104.68 E.00741
G1 X125.629 Y104.664 E.0113
M204 S1000
G1 X119.572 Y104.664 F10800
M204 S800
G1 F1200
G1 X119.122 Y104.716 E.01422
G1 X118.91 Y104.766 E.00683
G1 X118.518 Y104.907 E.01307
G1 X118.306 Y105.012 E.0074
G1 X117.968 Y105.23 E.01261
G1 X117.617 Y105.54 E.01468
G1 X117.361 Y105.85 E.01261
G1 X117.233 Y106.044 E.00729
G1 X117.032 Y106.451 E.01422
G1 X116.91 Y106.834 E.01261
G1 X116.864 Y107.062 E.00729
G1 X116.829 Y107.514 E.01422
G1 X116.86 Y107.915 E.01261
G1 X116.902 Y108.144 E.00729
G1 X117.039 Y108.576 E.01422
G1 X117.224 Y108.949 E.01307
G1 X117.342 Y109.133 E.00683
G1 X117.485 Y109.32 E.0074
G1 X117.774 Y109.621 E.01307
G1 X118.135 Y109.896 E.01422
G1 X118.488 Y110.088 E.01261
G1 X118.702 Y110.177 E.00729
G1 X119.14 Y110.297 E.01422
G1 X119.355 Y110.33 E.00683
G1 X119.772 Y110.346 E.01307
G1 X120.222 Y110.294 E.01422
G1 X120.624 Y110.183 E.01307
G1 X120.826 Y110.102 E.00683
G1 X121.225 Y109.886 E.01422
G1 X121.545 Y109.642 E.01261
G1 X121.714 Y109.482 E.00729
G1 X122.002 Y109.133 E.01422
G1 X122.215 Y108.774 E.01307
G1 X122.312 Y108.559 E.0074
G1 X122.385 Y108.354 E.00683
G1 X122.48 Y107.948 E.01307
G1 X122.514 Y107.496 E.01422
G1 X122.484 Y107.095 E.01261
G1 X122.442 Y106.866 E.00729
G1 X122.305 Y106.434 E.01422
G1 X122.12 Y106.06 E.01307
G1 X122.002 Y105.877 E.00683
G1 X121.714 Y105.527 E.01422
G1 X121.556 Y105.377 E.00683
G1 X121.225 Y105.124 E.01307
G1 X120.826 Y104.907 E.01422
G1 X120.624 Y104.826 E.00683
G1 X120.222 Y104.716 E.01307
G1 X119.989 Y104.68 E.00741
G1 X119.629 Y104.664 E.0113
M204 S1000
G1 X131.572 Y104.664 F10800
M204 S800
G1 F1200
G1 X131.122 Y104.716 E.01422
G1 X130.91 Y104.766 E.00683
G1 X130.518 Y104.907 E.01307
G1 X130.306 Y105.012 E.0074
G1 X129.968 Y105.23 E.01261
G1 X129.617 Y105.54 E.01468
G1 X129.361 Y105.85 E.01261
G1 X129.233 Y106.044 E.00729
G1 X129.032 Y106.451 E.01422
G1 X128.959 Y106.656 E.00683
G1 X128.864 Y107.062 E.01307
G1 X128.829 Y107.514 E.01422
G1 X128.86 Y107.915 E.01261
G1 X128.902 Y108.144 E.00729
G1 X128.965 Y108.371 E.0074
G1 X129.12 Y108.758 E.01307
G1 X129.352 Y109.148 E.01422
G1 X129.608 Y109.458 E.01261
G1 X129.774 Y109.621 E.00729
G1 X130.135 Y109.896 E.01422
G1 X130.488 Y110.088 E.01261
G1 X130.702 Y110.177 E.00729
G1 X131.14 Y110.297 E.01422
G1 X131.355 Y110.33 E.00683
G1 X131.772 Y110.346 E.01307
G1 X132.222 Y110.294 E.01422
G1 X132.61 Y110.188 E.01261
G1 X132.826 Y110.102 E.00729
G1 X133.225 Y109.886 E.01422
G1 X133.556 Y109.633 E.01307
G1 X133.714 Y109.482 E.00683
G1 X134.002 Y109.133 E.01422
G1 X134.215 Y108.774 E.01307
G1 X134.312 Y108.559 E.0074
G1 X134.385 Y108.354 E.00683
G1 X134.48 Y107.948 E.01307
G1 X134.514 Y107.496 E.01422
G1 X134.484 Y107.095 E.01261
G1 X134.442 Y106.866 E.00729
G1 X134.305 Y106.434 E.01422
G1 X134.215 Y106.235 E.00683
G1 X134.002 Y105.877 E.01307
G1 X133.714 Y105.527 E.01422
G1 X133.402 Y105.25 E.01307
G1 X133.225 Y105.124 E.00683
G1 X132.826 Y104.907 E.01422
G1 X132.624 Y104.826 E.00683
G1 X132.222 Y104.716 E.01307
G1 X131.989 Y104.68 E.00741
G1 X131.629 Y104.664 E.0113
M204 S1000
;WIPE_START
G1 F8640
G1 X131.989 Y104.68 E-.0832
G1 X132.222 Y104.716 E-.05455
G1 X132.624 Y104.826 E-.09623
G1 X132.826 Y104.907 E-.05028
G1 X133.225 Y105.124 E-.10473
G1 X133.402 Y105.25 E-.05027
G1 X133.714 Y105.527 E-.09625
G1 X134.002 Y105.877 E-.10473
G1 X134.215 Y106.235 E-.09623
G1 X134.257 Y106.328 E-.02353
;WIPE_END
G1 E-.04 F2100
G1 Z.6 F720
G1 X131.572 Y98.664 F10800
G1 Z.2 F720
G1 E.8 F2100
M204 S800
G1 F1200
G1 X131.122 Y98.716 E.01422
G1 X130.91 Y98.766 E.00683
G1 X130.518 Y98.907 E.01307
G1 X130.119 Y99.124 E.01422
G1 X129.788 Y99.377 E.01307
G1 X129.617 Y99.54 E.0074
G1 X129.473 Y99.703 E.00683
G1 X129.233 Y100.044 E.01307
G1 X129.032 Y100.451 E.01422
M73 Q2 S25
G1 X128.91 Y100.834 E.01261
G1 X128.864 Y101.062 E.00729
G1 X128.829 Y101.514 E.01422
G1 X128.86 Y101.915 E.01261
G1 X128.902 Y102.144 E.00729
G1 X128.965 Y102.371 E.0074
G1 X129.114 Y102.744 E.01261
G1 X129.352 Y103.148 E.01468
G1 X129.485 Y103.32 E.00683
G1 X129.774 Y103.621 E.01307
M73 P2 R25
G1 X130.135 Y103.896 E.01422
G1 X130.488 Y104.088 E.01261
G1 X130.702 Y104.177 E.00729
G1 X131.14 Y104.297 E.01422
G1 X131.355 Y104.33 E.00683
G1 X131.772 Y104.346 E.01307
G1 X132.222 Y104.294 E.01422
G1 X132.61 Y104.188 E.01261
G1 X132.826 Y104.102 E.00729
G1 X133.225 Y103.886 E.01422
G1 X133.402 Y103.76 E.00683
G1 X133.714 Y103.482 E.01307
G1 X134.002 Y103.133 E.01422
G1 X134.12 Y102.949 E.00683
G1 X134.305 Y102.576 E.01307
G1 X134.442 Y102.144 E.01422
G1 X134.505 Y101.732 E.01307
G1 X134.514 Y101.496 E.0074
G1 X134.484 Y101.095 E.01261
G1 X134.442 Y100.866 E.00729
G1 X134.305 Y100.434 E.01422
G1 X134.215 Y100.235 E.00683
G1 X134.002 Y99.877 E.01307
G1 X133.714 Y99.527 E.01422
G1 X133.556 Y99.377 E.00683
G1 X133.225 Y99.124 E.01307
G1 X132.826 Y98.907 E.01422
G1 X132.448 Y98.771 E.01261
G1 X132.222 Y98.716 E.00729
G1 X131.989 Y98.68 E.0074
G1 X131.629 Y98.664 E.0113
M204 S1000
G1 X125.572 Y98.664 F10800
M204 S800
G1 F1200
G1 X125.122 Y98.716 E.01422
G1 X124.91 Y98.766 E.00683
G1 X124.518 Y98.907 E.01307
G1 X124.306 Y99.012 E.0074
G1 X123.956 Y99.239 E.01307
G1 X123.617 Y99.54 E.01422
G1 X123.361 Y99.85 E.01261
G1 X123.233 Y100.044 E.00729
G1 X123.032 Y100.451 E.01422
G1 X122.91 Y100.834 E.01261
G1 X122.864 Y101.062 E.00729
G1 X122.829 Y101.514 E.01422
G1 X122.86 Y101.915 E.01261
G1 X122.902 Y102.144 E.00729
G1 X123.039 Y102.576 E.01422
G1 X123.217 Y102.937 E.01261
G1 X123.342 Y103.133 E.00729
G1 X123.485 Y103.32 E.0074
G1 X123.763 Y103.611 E.01261
G1 X124.135 Y103.896 E.01468
G1 X124.488 Y104.088 E.01261
G1 X124.702 Y104.177 E.00729
G1 X125.14 Y104.297 E.01422
G1 X125.355 Y104.33 E.00683
G1 X125.772 Y104.346 E.01307
G1 X126.222 Y104.294 E.01422
G1 X126.434 Y104.243 E.00683
G1 X126.826 Y104.102 E.01307
G1 X127.225 Y103.886 E.01422
G1 X127.402 Y103.76 E.00683
G1 X127.714 Y103.482 E.01307
G1 X128.002 Y103.133 E.01422
G1 X128.12 Y102.949 E.00683
G1 X128.305 Y102.576 E.01307
G1 X128.442 Y102.144 E.01422
G1 X128.505 Y101.732 E.01307
G1 X128.514 Y101.496 E.0074
G1 X128.484 Y101.095 E.01261
G1 X128.442 Y100.866 E.00729
G1 X128.305 Y100.434 E.01422
G1 X128.127 Y100.073 E.01261
G1 X128.002 Y99.877 E.00729
G1 X127.714 Y99.527 E.01422
G1 X127.402 Y99.25 E.01307
G1 X127.225 Y99.124 E.00683
G1 X126.826 Y98.907 E.01422
G1 X126.448 Y98.771 E.01261
G1 X126.222 Y98.716 E.00729
G1 X125.989 Y98.68 E.0074
G1 X125.629 Y98.664 E.0113
M204 S1000
