; generated by PrusaSlicer 2.5.0+win64 on 2023-02-23 at 23:25:45 UTC


;
;
; 

; external perimeters extrusion width = 0.45mm
; perimeters extrusion width = 0.45mm
; infill extrusion width = 0.45mm
; solid infill extrusion width = 0.45mm
; top infill extrusion width = 0.40mm
; first layer extrusion width = 0.42mm

M73 P0 R13
M73 Q0 S13
M201 X1000 Y1000 Z200 E5000 ; sets maximum accelerations, mm/sec^2
M203 X200 Y200 Z12 E120 ; sets maximum feedrates, mm / sec
M204 P1250 R1250 T1250 ; sets acceleration (P, T) and retract acceleration (R), mm/sec^2
M205 X8.00 Y8.00 Z0.40 E4.50 ; sets the jerk limits, mm/sec
M205 S0 T0 ; sets the minimum extruding and travel feed rate, mm/sec
M107
;TYPE:Custom
M862.3 P "MK3S" ; printer model check
M862.1 P0.4 ; nozzle diameter check
M115 U3.11.0 ; tell printer latest fw version
G90 ; use absolute coordinates
M83 ; extruder relative mode
M104 S215 ; set extruder temp
M140 S60 ; set bed temp
M190 S60 ; wait for bed temp
M109 S215 ; wait for extruder temp
G28 W ; home all without mesh bed level
G80 ; mesh bed leveling

G1 Z0.2 F720
G1 Y-3 F1000 ; go outside print area
G92 E0
G1 X60 E9 F1000 ; intro line
G1 X100 E12.5 F1000 ; intro line

G92 E0
M221 S95

; Don't change E values below. Excessive value can damage the printer.

M907 E538 ; set extruder motor current
G21 ; set units to millimeters
G90 ; use absolute coordinates
M83 ; use relative distances for extrusion
M900 K0.05 ; Filament gcode LA 1.5
M900 K30 ; Filament gcode LA 1.0
M107
;LAYER_CHANGE
;Z:0.2
;HEIGHT:0.2
;BEFORE_LAYER_CHANGE
G92 E0.0
;0.2


G1 E-.8 F2100
G1 Z.4 F720
;AFTER_LAYER_CHANGE
;0.2
G1 X110.714 Y97.658 F10800
G1 Z.2 F720
G1 E.8 F2100
M204 S800
;TYPE:Skirt/Brim
;WIDTH:0.42
G1 F1200
G1 X111.78 Y96.644 E.04612
G1 X113.075 Y96.321 E.04186
G1 X136.925 Y96.321 E.7478
G1 X138.342 Y96.714 E.04612
M73 P1 R13
M73 Q1 S13
G1 X139.356 Y97.78 E.04612
G1 X139.679 Y99.075 E.04186
G1 X139.679 Y110.925 E.37155
G1 X139.286 Y112.342 E.04612
G1 X138.22 Y113.356 E.04612
G1 X136.925 Y113.679 E.04186
G1 X113.075 Y113.679 E.7478
G1 X111.658 Y113.286 E.04612
G1 X110.644 Y112.22 E.04612
G1 X110.321 Y110.925 E.04186
G1 X110.321 Y99.075 E.37155
G1 X110.698 Y97.715 E.04424
M204 S1000
G1 X111.072 Y97.827 F10800
M204 S800
G1 F1200
G1 X111.09 Y97.768 E.00195
G1 X112.135 Y96.892 E.04278
G1 X113.075 Y96.698 E.03008
G1 X136.925 Y96.698 E.7478
G1 X138.232 Y97.09 E.04278
G1 X139.108 Y98.135 E.04278
G1 X139.302 Y99.075 E.03008
G1 X139.302 Y110.925 E.37155
G1 X138.91 Y112.232 E.04278
G1 X137.865 Y113.108 E.04278
G1 X136.925 Y113.302 E.03008
G1 X113.075 Y113.302 E.7478
G1 X111.768 Y112.91 E.04278
G1 X110.892 Y111.865 E.04278
G1 X110.698 Y110.925 E.03008
G1 X110.698 Y99.075 E.37155
G1 X111.054 Y97.885 E.03895
M204 S1000
; printing object Body1.stl id:0 copy 0
;WIPE_START
G1 F8640
G1 X111.09 Y97.768 E-.0282
G1 X112.135 Y96.892 E-.31505
G1 X113.075 Y96.698 E-.22155
G1 X113.92 Y96.698 E-.1952
;WIPE_END
G1 E-.04 F2100
G1 Z.6 F720
G1 X113.498 Y110.502 F10800
G1 Z.2 F720
M73 Q2 S13
G1 E.8 F2100
M204 S800
;TYPE:External perimeter
;WIDTH:0.471976
G1 F1200
M73 P2 R13
G1 X113.477 Y110.248 E.00909
;WIDTH:0.442497
G1 X113.456 Y109.994 E.00847
;WIDTH:0.42
G1 X113.456 Y99.997 E.31345
;WIDTH:0.442467
G1 X113.477 Y99.747 E.00831
;WIDTH:0.471976
G1 X113.498 Y99.498 E.00893
G1 X113.752 Y99.477 E.00909
;WIDTH:0.442466
G1 X114.006 Y99.456 E.00847
;WIDTH:0.419999
G1 X135.924 Y99.448 E.68722
;WIDTH:0.418291
G1 X135.996 Y99.45 E.00225
;WIDTH:0.445245
G1 X136.249 Y99.473 E.00849
;WIDTH:0.473387
G1 X136.501 Y99.496 E.00908
G1 X136.523 Y99.751 E.00916
;WIDTH:0.443202
G1 X136.544 Y100.006 E.00852
;WIDTH:0.42
G1 X136.555 Y100.561 E.01741
G1 X136.544 Y110.003 E.29605
;WIDTH:0.442466
G1 X136.523 Y110.253 E.00831
;WIDTH:0.471976
G1 X136.502 Y110.502 E.00893
G1 X136.248 Y110.523 E.00909
;WIDTH:0.442466
G1 X135.994 Y110.544 E.00847
;WIDTH:0.419999
G1 X113.997 Y110.544 E.6897
;WIDTH:0.442437
G1 X113.747 Y110.523 E.00831
;WIDTH:0.471976
G1 X113.558 Y110.507 E.00679
M204 S1000
;WIPE_START
G1 F8640
G1 X113.477 Y110.248 E-.06267
G1 X113.456 Y109.994 E-.05885
G1 X113.456 Y107.229 E-.63848
;WIPE_END
G1 E-.04 F2100
G1 Z.6 F720
G1 X136.174 Y100.011 F10800
G1 Z.2 F720
G1 E.8 F2100
M204 S800
;WIDTH:0.42
G1 F1200
G1 X136.174 Y109.989 E.31286
;WIDTH:0.442497
G1 X136.158 Y110.065 E.00258
;WIDTH:0.471976
G1 X136.141 Y110.141 E.00277
G1 X136.067 Y110.157 E.00269
;WIDTH:0.442437
G1 X135.994 Y110.174 E.0025
;WIDTH:0.419998
G1 X114.011 Y110.174 E.68926
;WIDTH:0.442466
G1 X113.935 Y110.158 E.00258
;WIDTH:0.471976
G1 X113.859 Y110.141 E.00277
G1 X113.842 Y110.065 E.00277
;WIDTH:0.442497
G1 X113.826 Y109.989 E.00258
;WIDTH:0.42
G1 X113.826 Y100.011 E.31286
;WIDTH:0.442497
G1 X113.842 Y99.935 E.00258
;WIDTH:0.471976
G1 X113.859 Y99.859 E.00277
G1 X113.935 Y99.842 E.00277
;WIDTH:0.442466
G1 X114.011 Y99.826 E.00258
;WIDTH:0.419999
G1 X135.924 Y99.823 E.68707
;WIDTH:0.445839
G1 X136.032 Y99.84 E.00367
;WIDTH:0.473387
G1 X136.14 Y99.857 E.00392
G1 X136.157 Y99.934 E.00281
;WIDTH:0.443202
G1 X136.161 Y99.952 E.00062
M204 S1000
;WIPE_START
G1 F8640
G1 X136.165 Y103.244 E-.76
;WIPE_END
G1 E-.04 F2100
G1 Z.6 F720
G1 X126.635 Y104.234 F10800
G1 Z.2 F720
G1 E.8 F2100
M204 S800
;WIDTH:0.39555
G1 F1200
G1 X126.647 Y104.253 E.00068
;WIDTH:0.398415
G1 X126.766 Y104.618 E.01135
G1 X126.809 Y105.022 E.01198
;WIDTH:0.394505
G1 X126.746 Y105.465 E.01308
;WIDTH:0.392927
G1 X126.528 Y105.964 E.01586
G1 X126.219 Y106.335 E.01405
M73 Q3 S13
G1 X125.964 Y106.528 E.00931
G1 X125.471 Y106.744 E.01567
;WIDTH:0.394505
G1 X124.978 Y106.809 E.01452
G1 X124.535 Y106.746 E.01308
;WIDTH:0.392927
G1 X124.036 Y106.528 E.01586
G1 X123.661 Y106.214 E.01424
;WIDTH:0.392279
G1 X123.475 Y105.97 E.0089
G1 X123.285 Y105.566 E.01299
;WIDTH:0.394895
G1 X123.192 Y105.029 E.01594
G1 X123.249 Y104.549 E.01414
;WIDTH:0.394608
G1 X123.356 Y104.247 E.00936
G1 X123.652 Y103.797 E.01574
;WIDTH:0.397087
G1 X124.035 Y103.47 E.01483
G1 X124.529 Y103.256 E.01587
;WIDTH:0.395417
M73 P3 R13
G1 X125.022 Y103.192 E.01457
G1 X125.559 Y103.282 E.01597
;WIDTH:0.396733
G1 X126.013 Y103.502 E.01483
G1 X126.409 Y103.867 E.01585
;WIDTH:0.39555
G1 X126.604 Y104.182 E.01087
M204 S1000
G1 X126.858 Y103.93 F10800
M204 S800
G1 F1200
G1 X126.951 Y104.077 E.00513
;WIDTH:0.394606
G1 X127.101 Y104.503 E.01318
;WIDTH:0.395392
G1 X127.162 Y105.018 E.01521
G1 X127.158 Y105.061 E.00127
;WIDTH:0.394505
G1 X127.073 Y105.588 E.01559
;WIDTH:0.392927
G1 X126.841 Y106.12 E.0169
;WIDTH:0.400606
G1 X126.588 Y106.464 E.01271
G1 X126.261 Y106.755 E.01302
;WIDTH:0.406554
G1 X125.876 Y106.97 E.01334
G1 X125.44 Y107.117 E.01391
;WIDTH:0.398415
G1 X124.939 Y107.158 E.01486
;WIDTH:0.394505
G1 X124.413 Y107.073 E.01559
;WIDTH:0.392927
G1 X123.88 Y106.841 E.0169
;WIDTH:0.400795
G1 X123.514 Y106.567 E.01361
G1 X123.166 Y106.133 E.01656
;WIDTH:0.392339
G1 X122.946 Y105.648 E.01547
;WIDTH:0.394895
G1 X122.844 Y105.076 E.01699
;WIDTH:0.398187
G1 X122.881 Y104.578 E.01475
G1 X123.003 Y104.177 E.01238
;WIDTH:0.405927
G1 X123.227 Y103.772 E.014
G1 X123.44 Y103.511 E.01015
;WIDTH:0.397831
G1 X123.893 Y103.144 E.01719
G1 X124.417 Y102.925 E.01678
;WIDTH:0.395556
G1 X124.938 Y102.84 E.01545
;WIDTH:0.406028
G1 X125.421 Y102.885 E.01464
G1 X125.737 Y102.974 E.00994
;WIDTH:0.398296
G1 X126.261 Y103.245 E.01742
G1 X126.666 Y103.626 E.01642
;WIDTH:0.39555
G1 X126.826 Y103.879 E.00877
M204 S1000
;WIPE_START
G1 F8640
G1 X126.951 Y104.077 E-.05425
G1 X127.101 Y104.503 E-.10408
G1 X127.162 Y105.018 E-.11985
G1 X127.158 Y105.061 E-.00997
G1 X127.073 Y105.588 E-.12314
G1 X126.841 Y106.12 E-.13406
G1 X126.588 Y106.464 E-.09868
G1 X126.261 Y106.755 E-.10108
G1 X126.205 Y106.787 E-.01489
;WIPE_END
G1 E-.04 F2100
G1 Z.6 F720
G1 X120.21 Y103.224 F10800
G1 Z.2 F720
G1 E.8 F2100
M204 S800
;WIDTH:0.392226
G1 F1200
G1 X120.434 Y103.392 E.00814
;WIDTH:0.392382
G1 X120.77 Y103.769 E.01467
;WIDTH:0.392647
G1 X120.99 Y104.169 E.01326
;WIDTH:0.3973
G1 X121.142 Y104.724 E.01697
G1 X121.142 Y105.269 E.01604
;WIDTH:0.400296
G1 X121.041 Y105.706 E.01334
G1 X120.856 Y106.107 E.01314
G1 X120.591 Y106.461 E.01312
G1 X120.261 Y106.755 E.01314
;WIDTH:0.406554
G1 X119.876 Y106.97 E.01334
G1 X119.44 Y107.117 E.01391
;WIDTH:0.398415
G1 X118.939 Y107.158 E.01486
;WIDTH:0.394505
G1 X118.413 Y107.073 E.01559
;WIDTH:0.392927
G1 X117.88 Y106.841 E.0169
;WIDTH:0.400795
G1 X117.536 Y106.588 E.01272
G1 X117.245 Y106.261 E.01303
;WIDTH:0.400468
G1 X117.027 Y105.877 E.01313
;WIDTH:0.406193
G1 X116.887 Y105.439 E.01389
G1 X116.844 Y104.924 E.01561
;WIDTH:0.394863
G1 X116.944 Y104.359 E.0168
;WIDTH:0.392203
G1 X117.166 Y103.868 E.01565
G1 X117.405 Y103.55 E.01155
G1 X117.789 Y103.215 E.01481
;WIDTH:0.40402
G1 X118.26 Y102.973 E.01589
G1 X118.694 Y102.862 E.01345
;WIDTH:0.401813
G1 X119.069 Y102.843 E.0112
;WIDTH:0.395418
G1 X119.641 Y102.943 E.01701
;WIDTH:0.392226
G1 X120.162 Y103.188 E.01672
M204 S1000
;WIPE_START
G1 F8640
G1 X120.434 Y103.392 E-.07857
G1 X120.77 Y103.769 E-.11659
G1 X120.99 Y104.169 E-.10529
G1 X121.142 Y104.724 E-.13301
G1 X121.142 Y105.269 E-.12571
G1 X121.041 Y105.706 E-.10367
G1 X120.865 Y106.088 E-.09717
;WIPE_END
G1 E-.04 F2100
G1 Z.6 F720
G1 X117.757 Y103.695 F10800
G1 Z.2 F720
G1 E.8 F2100
M204 S800
;WIDTH:0.400487
G1 F1200
G1 X118.04 Y103.467 E.0108
;WIDTH:0.397832
G1 X118.529 Y103.256 E.01571
;WIDTH:0.395418
G1 X119.022 Y103.192 E.01457
G1 X119.559 Y103.282 E.01597
;WIDTH:0.39745
G1 X120.036 Y103.519 E.01569
;WIDTH:0.400419
G1 X120.312 Y103.763 E.01096
G1 X120.54 Y104.054 E.01098
;WIDTH:0.400244
G1 X120.696 Y104.388 E.01095
G1 X120.788 Y104.725 E.01038
;WIDTH:0.3973
G1 X120.789 Y105.269 E.01605
;WIDTH:0.39667
G1 X120.781 Y105.311 E.00123
;WIDTH:0.392412
G1 X120.65 Y105.739 E.01302
G1 X120.501 Y106.007 E.0089
G1 X120.219 Y106.335 E.01258
;WIDTH:0.39289
G1 X119.964 Y106.528 E.00931
G1 X119.471 Y106.744 E.01567
;WIDTH:0.394505
G1 X118.978 Y106.809 E.01452
G1 X118.535 Y106.746 E.01308
;WIDTH:0.392927
G1 X118.036 Y106.528 E.01586
G1 X117.661 Y106.214 E.01424
;WIDTH:0.392279
G1 X117.475 Y105.97 E.0089
G1 X117.285 Y105.566 E.01298
;WIDTH:0.394889
G1 X117.192 Y105.029 E.01593
G1 X117.282 Y104.44 E.01744
;WIDTH:0.39714
G1 X117.518 Y103.964 E.01565
;WIDTH:0.400487
G1 X117.718 Y103.74 E.00893
M204 S1000
;WIPE_START
G1 F8640
G1 X118.04 Y103.467 E-.09754
G1 X118.529 Y103.256 E-.12296
G1 X119.022 Y103.192 E-.11478
G1 X119.559 Y103.282 E-.12579
G1 X120.036 Y103.519 E-.12287
G1 X120.312 Y103.763 E-.08511
G1 X120.54 Y104.054 E-.08527
G1 X120.551 Y104.076 E-.00568
;WIPE_END
G1 E-.04 F2100
G1 Z.6 F720
G1 X131.685 Y102.96 F10800
G1 Z.2 F720
G1 E.8 F2100
M204 S800
;WIDTH:0.406027
G1 F1200
G1 X131.737 Y102.974 E.00163
;WIDTH:0.398297
G1 X132.261 Y103.245 E.01742
G1 X132.666 Y103.626 E.01641
;WIDTH:0.395663
G1 X132.951 Y104.077 E.01567
;WIDTH:0.394606
G1 X133.101 Y104.503 E.01318
;WIDTH:0.395392
G1 X133.162 Y105.018 E.01521
G1 X133.158 Y105.061 E.00127
;WIDTH:0.394505
G1 X133.073 Y105.587 E.01559
;WIDTH:0.392927
G1 X132.841 Y106.12 E.0169
;WIDTH:0.394904
G1 X132.513 Y106.54 E.01562
G1 X132.215 Y106.782 E.01124
;WIDTH:0.406823
G1 X131.873 Y106.973 E.01185
G1 X131.44 Y107.117 E.01379
;WIDTH:0.398416
G1 X130.939 Y107.158 E.01486
;WIDTH:0.394505
G1 X130.413 Y107.073 E.01559
;WIDTH:0.392927
G1 X129.88 Y106.841 E.0169
;WIDTH:0.400795
G1 X129.536 Y106.588 E.01272
G1 X129.245 Y106.261 E.01303
;WIDTH:0.400467
G1 X129.027 Y105.877 E.01313
;WIDTH:0.406192
G1 X128.887 Y105.439 E.01389
G1 X128.844 Y104.924 E.01561
;WIDTH:0.394863
G1 X128.944 Y104.359 E.0168
;WIDTH:0.39229
G1 X129.166 Y103.868 E.01566
;WIDTH:0.392502
G1 X129.44 Y103.511 E.01308
;WIDTH:0.397831
G1 X129.893 Y103.144 E.01719
G1 X130.417 Y102.925 E.01678
;WIDTH:0.395556
G1 X130.938 Y102.84 E.01545
;WIDTH:0.406027
G1 X131.421 Y102.885 E.01464
G1 X131.628 Y102.943 E.00649
M204 S1000
G1 X131.701 Y103.011 F10800
;WIPE_START
G1 F8640
G1 X131.737 Y102.974 E-.02633
G1 X132.261 Y103.245 E-.13613
G1 X132.666 Y103.626 E-.12826
G1 X132.951 Y104.077 E-.12335
G1 X133.101 Y104.503 E-.1041
G1 X133.162 Y105.018 E-.11985
G1 X133.158 Y105.061 E-.00997
G1 X133.081 Y105.54 E-.11201
;WIPE_END
G1 E-.04 F2100
G1 Z.6 F720
G1 X129.753 Y103.699 F10800
G1 Z.2 F720
G1 E.8 F2100
M204 S800
;WIDTH:0.400486
G1 F1200
G1 X130.04 Y103.467 E.01097
;WIDTH:0.397831
G1 X130.529 Y103.256 E.01571
;WIDTH:0.395417
G1 X131.022 Y103.192 E.01457
G1 X131.559 Y103.282 E.01597
;WIDTH:0.396733
G1 X132.013 Y103.502 E.01483
G1 X132.409 Y103.867 E.01585
;WIDTH:0.395663
G1 X132.663 Y104.286 E.01437
;WIDTH:0.398415
G1 X132.766 Y104.618 E.01029
G1 X132.809 Y105.022 E.01198
;WIDTH:0.394505
G1 X132.746 Y105.465 E.01308
;WIDTH:0.392927
G1 X132.528 Y105.964 E.01585
;WIDTH:0.394374
G1 X132.22 Y106.336 E.01412
;WIDTH:0.398538
G1 X131.954 Y106.536 E.00982
G1 X131.471 Y106.744 E.01557
;WIDTH:0.394505
G1 X130.978 Y106.809 E.01452
G1 X130.535 Y106.746 E.01308
;WIDTH:0.392927
G1 X130.036 Y106.528 E.01586
G1 X129.661 Y106.214 E.01424
;WIDTH:0.392279
G1 X129.475 Y105.97 E.0089
G1 X129.285 Y105.566 E.01298
;WIDTH:0.39489
G1 X129.192 Y105.029 E.01593
G1 X129.282 Y104.44 E.01744
;WIDTH:0.397139
G1 X129.518 Y103.964 E.01565
;WIDTH:0.400486
G1 X129.714 Y103.744 E.00875
M204 S1000
; stop printing object Body1.stl id:0 copy 0
M106 S84.15
;LAYER_CHANGE
;Z:0.4
;HEIGHT:0.2
;BEFORE_LAYER_CHANGE
G92 E0.0
;0.4


;WIPE_START
G1 F8640
G1 X130.04 Y103.467 E-.09889
G1 X130.529 Y103.256 E-.12296
G1 X131.022 Y103.192 E-.11478
G1 X131.559 Y103.282 E-.12579
G1 X132.013 Y103.502 E-.11639
G1 X132.409 Y103.867 E-.12441
G1 X132.536 Y104.077 E-.05678
;WIPE_END
G1 E-.04 F2100
G1 Z.6 F720
;AFTER_LAYER_CHANGE
;0.4
G1 X139.679 Y104.077 F10800
G1 Z.4 F720
G1 E.8 F2100
;TYPE:Skirt/Brim
;WIDTH:0.42
G1 F1771
G1 X139.679 Y110.925 E.2147
G1 X139.286 Y112.342 E.04612
G1 X138.22 Y113.356 E.04612
G1 X136.925 Y113.679 E.04186
G1 X113.075 Y113.679 E.7478
G1 X111.658 Y113.286 E.04612
G1 X110.644 Y112.22 E.04612
G1 X110.321 Y110.925 E.04186
G1 X110.321 Y99.075 E.37155
G1 X110.714 Y97.658 E.04612
G1 X111.78 Y96.644 E.04612
G1 X113.075 Y96.321 E.04186
G1 X136.925 Y96.321 E.7478
G1 X138.342 Y96.714 E.04612
M73 P4 R13
M73 Q4 S13
G1 X139.356 Y97.78 E.04612
G1 X139.679 Y99.075 E.04186
G1 X139.679 Y104.017 E.15496
G1 X139.302 Y104.017 F10800
G1 F1771
G1 X139.302 Y110.925 E.21658
G1 X138.91 Y112.232 E.04278
G1 X137.865 Y113.108 E.04278
G1 X136.925 Y113.302 E.03008
G1 X113.075 Y113.302 E.7478
G1 X111.768 Y112.91 E.04278
G1 X110.892 Y111.865 E.04278
G1 X110.698 Y110.925 E.03008
G1 X110.698 Y99.075 E.37155
G1 X111.09 Y97.768 E.04278
G1 X112.135 Y96.892 E.04278
G1 X113.075 Y96.698 E.03008
G1 X136.925 Y96.698 E.7478
G1 X138.232 Y97.09 E.04278
G1 X139.108 Y98.135 E.04278
G1 X139.302 Y99.075 E.03008
G1 X139.302 Y103.957 E.15308
; printing object Body1.stl id:0 copy 0
;WIPE_START
G1 F8640
G1 X139.302 Y107.249 E-.76
;WIPE_END
G1 E-.04 F2100
G1 Z.8 F720
G1 X136.7 Y99.3 F10800
G1 Z.4 F720
G1 E.8 F2100
M204 S800
;TYPE:External perimeter
;WIDTH:0.449999
G1 F1771
G1 X136.7 Y99.726 E.01442
;WIDTH:0.493403
G1 X136.678 Y99.874 E.00562
;WIDTH:0.536807
G1 X136.657 Y100.023 E.00616
;WIDTH:0.58021
G1 X136.635 Y100.171 E.0067
G1 X136.635 Y109.829 E.43148
;WIDTH:0.58428
G1 X136.633 Y109.922 E.00421
;WIDTH:0.628337
G1 X136.611 Y110.256 E.01625
;WIDTH:0.672394
G1 X136.589 Y110.589 E.01748
G1 X136.209 Y110.612 E.01992
;WIDTH:0.626302
G1 X135.829 Y110.635 E.01846
;WIDTH:0.58021
G1 X114.171 Y110.635 E.96759
;WIDTH:0.626302
G1 X113.791 Y110.612 E.01846
;WIDTH:0.672393
G1 X113.411 Y110.589 E.01992
G1 X113.388 Y110.209 E.01992
;WIDTH:0.626302
G1 X113.365 Y109.829 E.01846
;WIDTH:0.58021
G1 X113.365 Y100.171 E.43148
;WIDTH:0.626302
G1 X113.388 Y99.791 E.01846
;WIDTH:0.672394
G1 X113.411 Y99.411 E.01992
G1 X113.791 Y99.388 E.01992
;WIDTH:0.626302
G1 X114.171 Y99.365 E.01846
;WIDTH:0.58021
G1 X135.829 Y99.365 E.96759
G1 X135.977 Y99.343 E.0067
;WIDTH:0.536807
G1 X136.126 Y99.322 E.00616
;WIDTH:0.493403
G1 X136.274 Y99.3 E.00562
;WIDTH:0.449999
G1 X136.64 Y99.3 E.01239
M204 S1000
;WIPE_START
G1 F8640
G1 X136.7 Y99.726 E-.09932
G1 X136.678 Y99.874 E-.03462
G1 X136.657 Y100.023 E-.03462
G1 X136.635 Y100.171 E-.03462
